CONST jointtarget JT_Set8_1:=[[17.2345,36.9155,5.7601,-29.4560,-38.4440,-57.5650],[0,9000000000,9000000000,0,0,0]];
CONST jointtarget JT_Set8_2:=[[33.2772,38.2525,2.7076,-3.4830,-33.3510,-76.3010],[0,9000000000,9000000000,0,0,0]];
CONST jointtarget JT_Set8_3:=[[-35.0862,27.7088,3.8284,-86.2500,-69.2290,-19.8380],[0,9000000000,9000000000,0,0,0]];
CONST jointtarget JT_Set8_4:=[[24.8833,14.6737,6.2646,-38.4240,-16.6000,-43.0850],[0,9000000000,9000000000,0,0,0]];
CONST jointtarget JT_Set8_5:=[[-48.6620,4.3409,25.4786,-93.6620,-80.8940,-18.0610],[0,9000000000,9000000000,0,0,0]];
CONST jointtarget JT_Set8_6:=[[26.8563,3.9694,20.4883,-26.7440,-18.5950,-54.5310],[0,9000000000,9000000000,0,0,0]];
CONST jointtarget JT_Set8_7:=[[-30.9070,21.7815,13.6963,-82.1840,-66.1610,-24.4660],[0,9000000000,9000000000,0,0,0]];
CONST jointtarget JT_Set8_11:=[[21.4414,28.3794,10.4104,-25.2150,-33.5120,-59.3700],[0,9000000000,9000000000,0,0,0]];
CONST jointtarget JT_Set8_12:=[[33.6354,37.5681,-1.0156,-3.2200,-28.9450,-76.3320],[0,9000000000,9000000000,0,0,0]];
CONST jointtarget JT_Set8_13:=[[25.6936,19.4424,6.1370,-28.5070,-20.0760,-53.1910],[0,9000000000,9000000000,0,0,0]];
CONST jointtarget JT_Set8_15:=[[19.5727,27.7489,22.0781,-22.5430,-44.1700,-64.4920],[0,9000000000,9000000000,0,0,0]];
CONST jointtarget JT_Set8_16:=[[-30.0265,19.4221,21.4138,-79.2610,-66.3450,-30.3460],[0,9000000000,9000000000,0,0,0]];
CONST jointtarget JT_Set8_17:=[[-34.1825,15.9618,6.1164,-89.5430,-68.0620,-9.6920],[0,9000000000,9000000000,0,0,0]];
CONST jointtarget JT_Set8_18:=[[21.0137,21.5500,20.2225,-24.1720,-36.3730,-61.0100],[0,9000000000,9000000000,0,0,0]];
CONST jointtarget JT_Set8_22:=[[-41.9800,11.3182,17.1894,-90.7320,-75.1200,-16.4890],[0,9000000000,9000000000,0,0,0]];
CONST jointtarget JT_Set8_24:=[[20.3393,7.2564,13.0131,-50.9140,-19.1420,-31.6570],[0,9000000000,9000000000,0,0,0]];
CONST jointtarget JT_Set8_25:=[[21.2221,16.6587,31.3264,-20.9580,-42.0450,-64.9680],[0,9000000000,9000000000,0,0,0]];
CONST jointtarget JT_Set8_26:=[[-37.9589,5.3422,25.1290,-88.1400,-71.6490,-18.5880],[0,9000000000,9000000000,0,0,0]];
CONST jointtarget JT_Set8_28:=[[27.8035,2.0199,20.2155,-27.2040,-16.2110,-53.6700],[0,9000000000,9000000000,0,0,0]];
CONST jointtarget JT_Set8_30:=[[-32.4055,38.4863,-3.0279,-83.1310,-67.3820,-24.2620],[0,9000000000,9000000000,0,0,0]];
CONST jointtarget JT_Set8_31:=[[22.0140,37.1653,-1.1350,-26.1830,-30.8290,-57.8430],[0,9000000000,9000000000,0,0,0]];
CONST jointtarget JT_Set8_32:=[[32.8869,11.2744,23.8203,-4.9400,-27.5120,-74.8740],[0,9000000000,9000000000,0,0,0]];
CONST jointtarget JT_Set8_33:=[[21.5338,17.9618,1.9903,-49.0360,-18.0580,-33.2100],[0,9000000000,9000000000,0,0,0]];
CONST jointtarget JT_Set8_34:=[[-32.8628,12.6621,24.2718,-82.8160,-67.9190,-25.8080],[0,9000000000,9000000000,0,0,0]];
CONST jointtarget JT_Set8_35:=[[33.2006,35.4674,2.2239,-3.8830,-30.1050,-75.8540],[0,9000000000,9000000000,0,0,0]];
CONST jointtarget JT_Set8_37:=[[19.0625,20.1618,0.3213,-52.9410,-20.2010,-29.9780],[0,9000000000,9000000000,0,0,0]];
CONST jointtarget JT_Set8_38:=[[-49.5358,18.2910,34.8172,-90.4380,-80.7210,-41.6620],[0,9000000000,9000000000,0,0,0]];
CONST jointtarget JT_Set8_39:=[[31.1294,-16.8979,35.9843,-19.5460,-12.0690,-60.3320],[0,9000000000,9000000000,0,0,0]];
CONST jointtarget JT_Set8_40:=[[23.4845,-7.0065,20.5818,-63.9500,-12.9400,-17.1660],[0,9000000000,9000000000,0,0,0]];
CONST jointtarget JT_Set8_41:=[[-26.9061,38.6018,-5.9527,-81.0520,-62.4840,-21.9020],[0,9000000000,9000000000,0,0,0]];
CONST jointtarget JT_Set8_42:=[[21.1398,34.2018,6.0348,-24.8030,-34.9010,-60.0990],[0,9000000000,9000000000,0,0,0]];
CONST jointtarget JT_Set8_43:=[[-23.9001,28.2888,0.8810,-81.2050,-59.3950,-18.4090],[0,9000000000,9000000000,0,0,0]];
CONST jointtarget JT_Set8_45:=[[29.1816,-1.8748,26.4158,-19.8640,-17.8380,-60.7750],[0,9000000000,9000000000,0,0,0]];
CONST jointtarget JT_Set8_47:=[[-50.4714,8.1568,23.2729,-94.3250,-82.3440,-19.7960],[0,9000000000,9000000000,0,0,0]];
CONST jointtarget JT_Set8_50:=[[29.6566,18.3194,20.9301,-10.3980,-31.9740,-70.8500],[0,9000000000,9000000000,0,0,0]];
CONST jointtarget JT_Set8_53:=[[-36.2949,-2.4041,26.0198,-89.7680,-70.0300,-11.3520],[0,9000000000,9000000000,0,0,0]];
CONST jointtarget JT_Set8_54:=[[31.9003,19.6746,18.2275,-6.5010,-30.3930,-73.7700],[0,9000000000,9000000000,0,0,0]];
CONST jointtarget JT_Set8_55:=[[57.1633,29.2384,2.3079,-314.7220,-31.4660,-116.6050],[0,9000000000,9000000000,0,0,0]];
CONST jointtarget JT_Set8_56:=[[-39.1214,22.2313,28.1996,-82.7650,-74.1370,-39.3300],[0,9000000000,9000000000,0,0,0]];
CONST jointtarget JT_Set8_58:=[[-33.6974,15.0510,7.4051,-89.2000,-67.6110,-10.1080],[0,9000000000,9000000000,0,0,0]];
CONST jointtarget JT_Set8_59:=[[-36.9331,22.8284,25.9747,-81.4880,-72.5110,-37.8640],[0,9000000000,9000000000,0,0,0]];
CONST jointtarget JT_Set8_60:=[[54.6935,12.5052,8.1179,-301.6430,-22.9050,-132.4400],[0,9000000000,9000000000,0,0,0]];
CONST jointtarget JT_Set8_61:=[[-33.6376,20.3493,16.3983,-83.3870,-68.5320,-25.5150],[0,9000000000,9000000000,0,0,0]];
CONST jointtarget JT_Set8_62:=[[23.4581,16.0903,27.5088,-19.3470,-37.3820,-64.9380],[0,9000000000,9000000000,0,0,0]];
CONST jointtarget JT_Set8_64:=[[-22.9900,49.3191,-13.3375,-76.7100,-59.9540,-26.3350],[0,9000000000,9000000000,0,0,0]];
CONST jointtarget JT_Set8_65:=[[19.6638,19.8211,0.1437,-52.8510,-19.4130,-29.8480],[0,9000000000,9000000000,0,0,0]];
CONST jointtarget JT_Set8_66:=[[28.9183,13.7249,24.3754,-12.1280,-30.9580,-69.3360],[0,9000000000,9000000000,0,0,0]];
CONST jointtarget JT_Set8_67:=[[-42.0959,4.7822,26.2938,-90.0940,-75.2080,-19.1550],[0,9000000000,9000000000,0,0,0]];
CONST jointtarget JT_Set8_69:=[[28.1514,10.3758,5.7276,-39.9340,-10.8890,-40.4630],[0,9000000000,9000000000,0,0,0]];
CONST jointtarget JT_Set8_71:=[[34.0855,37.9167,5.3155,-1.8890,-35.5980,-77.5400],[0,9000000000,9000000000,0,0,0]];
CONST jointtarget JT_Set8_72:=[[-42.8603,12.1991,38.0949,-85.7230,-76.4940,-38.9460],[0,9000000000,9000000000,0,0,0]];
CONST jointtarget JT_Set8_73:=[[25.1926,33.1897,10.7405,-16.5170,-37.3220,-67.0190],[0,9000000000,9000000000,0,0,0]];
CONST jointtarget JT_Set8_74:=[[33.4000,23.1790,-0.8208,-6.9000,-14.7760,-72.5040],[0,9000000000,9000000000,0,0,0]];
CONST jointtarget JT_Set8_76:=[[19.2220,9.6192,5.2604,-67.0280,-17.2290,-15.0630],[0,9000000000,9000000000,0,0,0]];
CONST jointtarget JT_Set8_77:=[[20.6717,16.4717,11.9936,-36.1470,-24.9240,-47.3910],[0,9000000000,9000000000,0,0,0]];
CONST jointtarget JT_Set8_78:=[[-38.2967,18.3872,10.5328,-88.8170,-71.8900,-16.9550],[0,9000000000,9000000000,0,0,0]];
CONST jointtarget JT_Set8_81:=[[22.7418,22.9182,11.0535,-26.4270,-28.7120,-57.0850],[0,9000000000,9000000000,0,0,0]];
CONST jointtarget JT_Set8_82:=[[-34.9029,18.5169,9.9581,-87.3110,-68.8970,-16.5810],[0,9000000000,9000000000,0,0,0]];
CONST jointtarget JT_Set8_86:=[[30.1676,13.4569,13.7279,-14.5560,-20.1020,-65.9130],[0,9000000000,9000000000,0,0,0]];
CONST jointtarget JT_Set8_89:=[[18.4490,15.5686,10.5916,-43.7160,-24.4230,-40.2090],[0,9000000000,9000000000,0,0,0]];
CONST jointtarget JT_Set8_90:=[[31.1116,-4.4289,40.4123,-8.4460,-28.5700,-72.0520],[0,9000000000,9000000000,0,0,0]];
CONST jointtarget JT_Set8_91:=[[-35.4441,31.4935,-10.5112,-90.4190,-69.2600,-8.5550],[0,9000000000,9000000000,0,0,0]];
CONST jointtarget JT_Set8_92:=[[22.6384,37.6510,-5.6578,-28.2720,-26.9830,-55.0250],[0,9000000000,9000000000,0,0,0]];
CONST jointtarget JT_Set8_93:=[[-36.9548,13.8017,4.0894,-92.0430,-70.7510,-5.2820],[0,9000000000,9000000000,0,0,0]];
CONST jointtarget JT_Set8_95:=[[-28.1434,29.4746,16.6956,-75.5200,-66.1520,-36.3720],[0,9000000000,9000000000,0,0,0]];
CONST jointtarget JT_Set8_96:=[[17.4260,44.4209,-5.1817,-31.4880,-35.3980,-54.8620],[0,9000000000,9000000000,0,0,0]];
CONST jointtarget JT_Set8_97:=[[-37.1602,23.6774,14.0488,-85.2670,-71.4020,-26.2430],[0,9000000000,9000000000,0,0,0]];
CONST jointtarget JT_Set8_98:=[[33.5724,-4.4203,38.1691,-3.5980,-26.1260,-75.9180],[0,9000000000,9000000000,0,0,0]];
CONST jointtarget JT_Set8_99:=[[19.4277,28.8174,12.4838,-26.9950,-36.4500,-58.8180],[0,9000000000,9000000000,0,0,0]];
CONST jointtarget JT_Set8_101:=[[-38.3788,-1.7731,27.9887,-89.7500,-71.9330,-14.0770],[0,9000000000,9000000000,0,0,0]];
CONST jointtarget JT_Set8_106:=[[29.1260,35.8435,-2.2061,-13.4780,-26.5830,-67.6480],[0,9000000000,9000000000,0,0,0]];
CONST jointtarget JT_Set8_107:=[[-25.5951,37.1821,-2.6032,-79.2210,-61.7300,-24.2590],[0,9000000000,9000000000,0,0,0]];
CONST jointtarget JT_Set8_109:=[[31.8553,28.6331,-2.8909,-10.4330,-18.3590,-69.4760],[0,9000000000,9000000000,0,0,0]];
CONST jointtarget JT_Set8_111:=[[-26.7134,26.9997,2.2060,-82.7450,-61.8370,-18.0580],[0,9000000000,9000000000,0,0,0]];
CONST jointtarget JT_Set8_112:=[[16.6693,27.9960,9.0796,-34.3340,-33.8840,-51.9450],[0,9000000000,9000000000,0,0,0]];
CONST jointtarget JT_Set8_115:=[[26.1526,-2.2946,15.4339,-59.2720,-10.4360,-21.3120],[0,9000000000,9000000000,0,0,0]];
CONST jointtarget JT_Set8_116:=[[34.2286,41.9746,-8.6327,-2.2050,-25.7230,-77.0980],[0,9000000000,9000000000,0,0,0]];
CONST jointtarget JT_Set8_117:=[[16.1312,32.4588,8.4720,-32.2910,-37.3550,-54.9140],[0,9000000000,9000000000,0,0,0]];
CONST jointtarget JT_Set8_118:=[[31.8668,11.8835,22.7767,-7.1780,-27.1790,-73.0030],[0,9000000000,9000000000,0,0,0]];
CONST jointtarget JT_Set8_119:=[[-35.2768,28.9552,14.4121,-82.0470,-70.5900,-32.3650],[0,9000000000,9000000000,0,0,0]];
CONST jointtarget JT_Set8_120:=[[28.5023,-0.2670,24.5127,-22.2180,-17.7670,-58.5880],[0,9000000000,9000000000,0,0,0]];
CONST jointtarget JT_Set8_121:=[[30.5994,19.0664,26.8964,-7.3440,-38.5250,-73.7970],[0,9000000000,9000000000,0,0,0]];
CONST jointtarget JT_Set8_122:=[[32.2886,-2.5240,18.8834,-18.4660,-9.1400,-61.0850],[0,9000000000,9000000000,0,0,0]];
CONST jointtarget JT_Set8_123:=[[-34.7323,16.8944,12.2158,-86.9820,-68.7830,-17.2650],[0,9000000000,9000000000,0,0,0]];
CONST jointtarget JT_Set8_125:=[[24.8371,-11.9605,22.9840,-72.6820,-10.7390,-7.9500],[0,9000000000,9000000000,0,0,0]];
CONST jointtarget JT_Set8_126:=[[-23.4704,45.8245,-10.3749,-77.3350,-60.1990,-25.6380],[0,9000000000,9000000000,0,0,0]];
CONST jointtarget JT_Set8_127:=[[-38.7661,-12.3938,26.8379,-93.6560,-72.6490,-1.7530],[0,9000000000,9000000000,0,0,0]];
CONST jointtarget JT_Set8_128:=[[-41.5110,14.5976,31.2923,-85.8010,-75.2700,-34.4940],[0,9000000000,9000000000,0,0,0]];
CONST jointtarget JT_Set8_129:=[[31.1289,30.4140,4.3168,-8.7390,-27.3210,-71.6980],[0,9000000000,9000000000,0,0,0]];
CONST jointtarget JT_Set8_130:=[[-30.3394,29.3818,14.4722,-78.2290,-67.1740,-33.5260],[0,9000000000,9000000000,0,0,0]];
CONST jointtarget JT_Set8_132:=[[-27.2466,22.0684,-2.6879,-88.2750,-61.5470,-6.8980],[0,9000000000,9000000000,0,0,0]];
CONST jointtarget JT_Set8_133:=[[22.2252,15.0427,0.3742,-60.0850,-14.8890,-21.4700],[0,9000000000,9000000000,0,0,0]];
CONST jointtarget JT_Set8_134:=[[-42.7129,2.3119,23.2016,-91.8140,-75.8410,-13.4300],[0,9000000000,9000000000,0,0,0]];