CONST robtarget Calib_1:=[[1593.7,-862.28,1214.1],[0.610890,-0.631824,0.409263,-0.245195],[0,-1,-1,1],[9.0000E+09,9.0000E+09,9.0000E+09,9.0000E+09,9.0000E+09,9.0000E+09]];
CONST robtarget Calib_2:=[[1627.5,826.18,1472.4],[0.610944,-0.631823,0.409297,-0.245350],[-1,-2,0,1],[9.0000E+09,9.0000E+09,9.0000E+09,9.0000E+09,9.0000E+09,9.0000E+09]];
CONST robtarget Calib_3:=[[2018.6,784.66,1024.1],[0.610923,-0.631799,0.409207,-0.245279],[-1,-2,0,1],[9.0000E+09,9.0000E+09,9.0000E+09,9.0000E+09,9.0000E+09,9.0000E+09]];
CONST robtarget Calib_4:=[[1329.1,-857.43,1554.8],[0.610811,-0.631819,0.409330,-0.245311],[0,0,-2,1],[9.0000E+09,9.0000E+09,9.0000E+09,9.0000E+09,9.0000E+09,9.0000E+09]];
CONST robtarget Calib_5:=[[1366.7,1565,980.75],[0.610931,-0.631792,0.409267,-0.245303],[0,-1,-1,1],[9.0000E+09,9.0000E+09,9.0000E+09,9.0000E+09,9.0000E+09,9.0000E+09]];
CONST robtarget Calib_6:=[[1212.7,756.59,1299.8],[0.610903,-0.631823,0.409269,-0.245195],[0,-1,-1,1],[9.0000E+09,9.0000E+09,9.0000E+09,9.0000E+09,9.0000E+09,9.0000E+09]];
CONST robtarget Calib_7:=[[1547.1,-739.85,874.23],[0.610958,-0.631787,0.409235,-0.245287],[-1,-2,0,1],[9.0000E+09,9.0000E+09,9.0000E+09,9.0000E+09,9.0000E+09,9.0000E+09]];
CONST robtarget Calib_8:=[[1228.7,-904.23,1449.4],[0.610935,-0.631797,0.409200,-0.245331],[0,-1,-1,1],[9.0000E+09,9.0000E+09,9.0000E+09,9.0000E+09,9.0000E+09,9.0000E+09]];
CONST robtarget Calib_9:=[[1656.9,1427.9,868.91],[0.610863,-0.631822,0.409303,-0.245271],[-1,-2,0,1],[9.0000E+09,9.0000E+09,9.0000E+09,9.0000E+09,9.0000E+09,9.0000E+09]];
CONST robtarget Calib_10:=[[1387.9,718.01,1123.2],[0.610935,-0.631800,0.409318,-0.245244],[0,0,-2,1],[9.0000E+09,9.0000E+09,9.0000E+09,9.0000E+09,9.0000E+09,9.0000E+09]];
CONST robtarget Calib_11:=[[1713.5,-658.66,706],[0.610910,-0.631805,0.409319,-0.245358],[0,-1,-1,1],[9.0000E+09,9.0000E+09,9.0000E+09,9.0000E+09,9.0000E+09,9.0000E+09]];
CONST robtarget Calib_12:=[[2110.7,1146.8,652.66],[0.610858,-0.631806,0.409167,-0.245304],[0,0,-2,1],[9.0000E+09,9.0000E+09,9.0000E+09,9.0000E+09,9.0000E+09,9.0000E+09]];
CONST robtarget Calib_13:=[[1756.4,806.75,898.93],[0.610936,-0.631820,0.409205,-0.245376],[0,-1,-1,1],[9.0000E+09,9.0000E+09,9.0000E+09,9.0000E+09,9.0000E+09,9.0000E+09]];
CONST robtarget Calib_14:=[[1375.3,-756.83,1024.7],[0.610893,-0.631820,0.409184,-0.245332],[-1,-1,-1,1],[9.0000E+09,9.0000E+09,9.0000E+09,9.0000E+09,9.0000E+09,9.0000E+09]];
CONST robtarget Calib_15:=[[1776.7,-973.38,641.63],[0.610883,-0.631786,0.409176,-0.245334],[0,0,-2,1],[9.0000E+09,9.0000E+09,9.0000E+09,9.0000E+09,9.0000E+09,9.0000E+09]];
CONST robtarget Calib_16:=[[1232.9,874.41,1373.8],[0.610952,-0.631811,0.409273,-0.245331],[-1,-2,0,1],[9.0000E+09,9.0000E+09,9.0000E+09,9.0000E+09,9.0000E+09,9.0000E+09]];
CONST robtarget Calib_17:=[[1311,1536.1,1178.8],[0.610823,-0.631822,0.409293,-0.245311],[0,0,-2,1],[9.0000E+09,9.0000E+09,9.0000E+09,9.0000E+09,9.0000E+09,9.0000E+09]];
CONST robtarget Calib_18:=[[1718.7,802.7,687.04],[0.610888,-0.631823,0.409227,-0.245374],[0,0,-2,1],[9.0000E+09,9.0000E+09,9.0000E+09,9.0000E+09,9.0000E+09,9.0000E+09]];
CONST robtarget Calib_19:=[[1602.3,1638,851.68],[0.610840,-0.631824,0.409260,-0.245350],[-1,-1,-1,1],[9.0000E+09,9.0000E+09,9.0000E+09,9.0000E+09,9.0000E+09,9.0000E+09]];
CONST robtarget Calib_20:=[[1656.1,1044,844.5],[0.610931,-0.631796,0.409283,-0.245214],[0,0,-2,1],[9.0000E+09,9.0000E+09,9.0000E+09,9.0000E+09,9.0000E+09,9.0000E+09]];
CONST robtarget Calib_21:=[[1326.2,742.06,787.24],[0.610911,-0.631801,0.409217,-0.245384],[0,-1,-1,1],[9.0000E+09,9.0000E+09,9.0000E+09,9.0000E+09,9.0000E+09,9.0000E+09]];
CONST robtarget Calib_22:=[[1476.8,1510.8,736.56],[0.610842,-0.631817,0.409242,-0.245290],[-1,-2,0,1],[9.0000E+09,9.0000E+09,9.0000E+09,9.0000E+09,9.0000E+09,9.0000E+09]];
CONST robtarget Calib_23:=[[1803.8,-860.52,1113.4],[0.610846,-0.631810,0.409227,-0.245212],[-1,-2,0,1],[9.0000E+09,9.0000E+09,9.0000E+09,9.0000E+09,9.0000E+09,9.0000E+09]];
CONST robtarget Calib_24:=[[1530.1,-744.13,1461.6],[0.610856,-0.631803,0.409160,-0.245241],[0,-1,-1,1],[9.0000E+09,9.0000E+09,9.0000E+09,9.0000E+09,9.0000E+09,9.0000E+09]];
CONST robtarget Calib_25:=[[1501.4,1407.8,759.04],[0.610807,-0.631792,0.409275,-0.245245],[0,-1,-1,1],[9.0000E+09,9.0000E+09,9.0000E+09,9.0000E+09,9.0000E+09,9.0000E+09]];
CONST robtarget Calib_26:=[[1763.6,887.28,1476],[0.610961,-0.631810,0.409240,-0.245353],[0,-1,-1,1],[9.0000E+09,9.0000E+09,9.0000E+09,9.0000E+09,9.0000E+09,9.0000E+09]];
CONST robtarget Calib_27:=[[1979.5,-679.81,1121.6],[0.610920,-0.631796,0.409284,-0.245299],[-1,-2,0,1],[9.0000E+09,9.0000E+09,9.0000E+09,9.0000E+09,9.0000E+09,9.0000E+09]];
CONST robtarget Calib_28:=[[1220.1,-805.14,1469.8],[0.610866,-0.631811,0.409189,-0.245285],[0,0,-2,1],[9.0000E+09,9.0000E+09,9.0000E+09,9.0000E+09,9.0000E+09,9.0000E+09]];
CONST robtarget Calib_29:=[[1240.4,645.35,677],[0.610864,-0.631809,0.409275,-0.245381],[-1,-2,0,1],[9.0000E+09,9.0000E+09,9.0000E+09,9.0000E+09,9.0000E+09,9.0000E+09]];
CONST robtarget Calib_30:=[[1710.5,-742,1200.2],[0.610864,-0.631809,0.409251,-0.245292],[0,-1,-1,1],[9.0000E+09,9.0000E+09,9.0000E+09,9.0000E+09,9.0000E+09,9.0000E+09]];
CONST robtarget Calib_31:=[[2207.9,-819.31,782.65],[0.610834,-0.631797,0.409235,-0.245208],[0,-1,-1,1],[9.0000E+09,9.0000E+09,9.0000E+09,9.0000E+09,9.0000E+09,9.0000E+09]];
CONST robtarget Calib_32:=[[1986,-970.74,1077.4],[0.610863,-0.631794,0.409168,-0.245360],[0,-1,-1,1],[9.0000E+09,9.0000E+09,9.0000E+09,9.0000E+09,9.0000E+09,9.0000E+09]];
CONST robtarget Calib_33:=[[1398,1133.9,1368.9],[0.610910,-0.631810,0.409285,-0.245358],[0,-1,-1,1],[9.0000E+09,9.0000E+09,9.0000E+09,9.0000E+09,9.0000E+09,9.0000E+09]];
CONST robtarget Calib_34:=[[1575.7,-1001.6,1519.5],[0.610869,-0.631806,0.409169,-0.245355],[0,0,-2,1],[9.0000E+09,9.0000E+09,9.0000E+09,9.0000E+09,9.0000E+09,9.0000E+09]];
CONST robtarget Calib_35:=[[1441.3,851.06,1408],[0.610810,-0.631800,0.409197,-0.245324],[0,-1,-1,1],[9.0000E+09,9.0000E+09,9.0000E+09,9.0000E+09,9.0000E+09,9.0000E+09]];
CONST robtarget Calib_36:=[[1259.5,976.07,1397.5],[0.610887,-0.631801,0.409253,-0.245307],[0,-1,-1,1],[9.0000E+09,9.0000E+09,9.0000E+09,9.0000E+09,9.0000E+09,9.0000E+09]];
CONST robtarget Calib_37:=[[1360.3,1625.5,1206.4],[0.610886,-0.631819,0.409174,-0.245302],[-1,-2,0,1],[9.0000E+09,9.0000E+09,9.0000E+09,9.0000E+09,9.0000E+09,9.0000E+09]];
CONST robtarget Calib_38:=[[1548.5,1118.1,649.64],[0.610939,-0.631810,0.409156,-0.245311],[0,-1,-1,1],[9.0000E+09,9.0000E+09,9.0000E+09,9.0000E+09,9.0000E+09,9.0000E+09]];
CONST robtarget Calib_39:=[[1464.9,845.59,1213.4],[0.610923,-0.631814,0.409316,-0.245261],[-1,-2,0,1],[9.0000E+09,9.0000E+09,9.0000E+09,9.0000E+09,9.0000E+09,9.0000E+09]];
CONST robtarget Calib_40:=[[1421.5,-786.64,1391.7],[0.610869,-0.631816,0.409247,-0.245251],[0,0,-2,1],[9.0000E+09,9.0000E+09,9.0000E+09,9.0000E+09,9.0000E+09,9.0000E+09]];
CONST robtarget Calib_41:=[[1777.6,938.65,1216.3],[0.610933,-0.631822,0.409221,-0.245202],[-1,-2,0,1],[9.0000E+09,9.0000E+09,9.0000E+09,9.0000E+09,9.0000E+09,9.0000E+09]];
CONST robtarget Calib_42:=[[1479.9,814.37,997.31],[0.610853,-0.631808,0.409174,-0.245178],[0,-1,-1,1],[9.0000E+09,9.0000E+09,9.0000E+09,9.0000E+09,9.0000E+09,9.0000E+09]];
CONST robtarget Calib_43:=[[1812.4,1184.2,656.13],[0.610873,-0.631791,0.409147,-0.245301],[-1,-2,0,1],[9.0000E+09,9.0000E+09,9.0000E+09,9.0000E+09,9.0000E+09,9.0000E+09]];
CONST robtarget Calib_44:=[[1451.6,1234.1,1473.7],[0.610833,-0.631791,0.409208,-0.245354],[-1,-1,-1,1],[9.0000E+09,9.0000E+09,9.0000E+09,9.0000E+09,9.0000E+09,9.0000E+09]];
CONST robtarget Calib_45:=[[1992.4,690.06,1006.3],[0.610865,-0.631804,0.409191,-0.245177],[0,0,-2,1],[9.0000E+09,9.0000E+09,9.0000E+09,9.0000E+09,9.0000E+09,9.0000E+09]];
CONST robtarget Calib_46:=[[1235.3,-642.16,1565.3],[0.610927,-0.631817,0.409160,-0.245359],[-1,-1,-1,1],[9.0000E+09,9.0000E+09,9.0000E+09,9.0000E+09,9.0000E+09,9.0000E+09]];
CONST robtarget Calib_47:=[[1608.9,-787.36,1054.6],[0.610907,-0.631806,0.409305,-0.245205],[-1,-2,0,1],[9.0000E+09,9.0000E+09,9.0000E+09,9.0000E+09,9.0000E+09,9.0000E+09]];
CONST robtarget Calib_48:=[[1807,1109,895.53],[0.610891,-0.631786,0.409254,-0.245324],[0,0,-2,1],[9.0000E+09,9.0000E+09,9.0000E+09,9.0000E+09,9.0000E+09,9.0000E+09]];
CONST robtarget Calib_49:=[[1809,722.68,1112.8],[0.610828,-0.631802,0.409168,-0.245259],[-1,-2,0,1],[9.0000E+09,9.0000E+09,9.0000E+09,9.0000E+09,9.0000E+09,9.0000E+09]];
CONST robtarget Calib_50:=[[1327.9,-832.03,1442.9],[0.610823,-0.631818,0.409220,-0.245304],[0,0,-2,1],[9.0000E+09,9.0000E+09,9.0000E+09,9.0000E+09,9.0000E+09,9.0000E+09]];
CONST robtarget Calib_51:=[[1830.8,649.3,1073.7],[0.610912,-0.631808,0.409162,-0.245298],[0,0,-2,1],[9.0000E+09,9.0000E+09,9.0000E+09,9.0000E+09,9.0000E+09,9.0000E+09]];
CONST robtarget Calib_52:=[[1787.1,1012.4,737.62],[0.610840,-0.631789,0.409307,-0.245185],[0,-1,-1,1],[9.0000E+09,9.0000E+09,9.0000E+09,9.0000E+09,9.0000E+09,9.0000E+09]];
CONST robtarget Calib_53:=[[1627.2,-736.46,915.77],[0.610865,-0.631801,0.409249,-0.245375],[0,-1,-1,1],[9.0000E+09,9.0000E+09,9.0000E+09,9.0000E+09,9.0000E+09,9.0000E+09]];
CONST robtarget Calib_54:=[[2152.7,-800.92,630.25],[0.610928,-0.631802,0.409153,-0.245268],[-1,-1,-1,1],[9.0000E+09,9.0000E+09,9.0000E+09,9.0000E+09,9.0000E+09,9.0000E+09]];
CONST robtarget Calib_55:=[[1301.5,1205.8,1106.3],[0.610953,-0.631802,0.409270,-0.245356],[-1,-2,0,1],[9.0000E+09,9.0000E+09,9.0000E+09,9.0000E+09,9.0000E+09,9.0000E+09]];
CONST robtarget Calib_56:=[[1915.7,-757.29,1027],[0.610911,-0.631817,0.409172,-0.245219],[0,0,-2,1],[9.0000E+09,9.0000E+09,9.0000E+09,9.0000E+09,9.0000E+09,9.0000E+09]];
CONST robtarget Calib_57:=[[1606.4,960.96,827.2],[0.610850,-0.631795,0.409274,-0.245384],[-1,-2,0,1],[9.0000E+09,9.0000E+09,9.0000E+09,9.0000E+09,9.0000E+09,9.0000E+09]];
CONST robtarget Calib_58:=[[1277.3,1678.9,1000.1],[0.610822,-0.631802,0.409290,-0.245380],[0,-1,-1,1],[9.0000E+09,9.0000E+09,9.0000E+09,9.0000E+09,9.0000E+09,9.0000E+09]];
CONST robtarget Calib_59:=[[1524,772.42,762.69],[0.610966,-0.631815,0.409327,-0.245178],[-1,-1,-1,1],[9.0000E+09,9.0000E+09,9.0000E+09,9.0000E+09,9.0000E+09,9.0000E+09]];
CONST robtarget Calib_60:=[[1255.5,983.77,727.76],[0.610870,-0.631816,0.409260,-0.245330],[-1,-2,0,1],[9.0000E+09,9.0000E+09,9.0000E+09,9.0000E+09,9.0000E+09,9.0000E+09]];
CONST robtarget Calib_61:=[[1476.7,1038.8,887.77],[0.610843,-0.631810,0.409295,-0.245276],[0,-1,-1,1],[9.0000E+09,9.0000E+09,9.0000E+09,9.0000E+09,9.0000E+09,9.0000E+09]];
CONST robtarget Calib_62:=[[1549.8,-755.83,1174.8],[0.610954,-0.631819,0.409218,-0.245266],[0,-1,-1,1],[9.0000E+09,9.0000E+09,9.0000E+09,9.0000E+09,9.0000E+09,9.0000E+09]];
CONST robtarget Calib_63:=[[1313.8,-654.14,732.05],[0.610865,-0.631823,0.409182,-0.245368],[0,0,-2,1],[9.0000E+09,9.0000E+09,9.0000E+09,9.0000E+09,9.0000E+09,9.0000E+09]];
CONST robtarget Calib_64:=[[1904,-882.93,1241.8],[0.610902,-0.631810,0.409305,-0.245266],[0,-1,-1,1],[9.0000E+09,9.0000E+09,9.0000E+09,9.0000E+09,9.0000E+09,9.0000E+09]];
CONST robtarget Calib_65:=[[1521.3,-714.29,1416.7],[0.610910,-0.631812,0.409186,-0.245234],[-1,-2,0,1],[9.0000E+09,9.0000E+09,9.0000E+09,9.0000E+09,9.0000E+09,9.0000E+09]];
CONST robtarget Calib_66:=[[1710.8,887.52,892.04],[0.610967,-0.631794,0.409202,-0.245368],[0,-1,-1,1],[9.0000E+09,9.0000E+09,9.0000E+09,9.0000E+09,9.0000E+09,9.0000E+09]];
CONST robtarget Calib_67:=[[1771.4,-969.51,1397.5],[0.610859,-0.631788,0.409324,-0.245362],[0,0,-2,1],[9.0000E+09,9.0000E+09,9.0000E+09,9.0000E+09,9.0000E+09,9.0000E+09]];
CONST robtarget Calib_68:=[[1267.7,-873.22,1047.3],[0.610806,-0.631799,0.409161,-0.245206],[-1,-1,-1,1],[9.0000E+09,9.0000E+09,9.0000E+09,9.0000E+09,9.0000E+09,9.0000E+09]];
CONST robtarget Calib_69:=[[1729.9,-826.28,1386.3],[0.610934,-0.631815,0.409325,-0.245324],[0,0,-2,1],[9.0000E+09,9.0000E+09,9.0000E+09,9.0000E+09,9.0000E+09,9.0000E+09]];
CONST robtarget Calib_70:=[[1371.7,1734.4,1027.6],[0.610855,-0.631812,0.409213,-0.245189],[0,-1,-1,1],[9.0000E+09,9.0000E+09,9.0000E+09,9.0000E+09,9.0000E+09,9.0000E+09]];
CONST robtarget Calib_71:=[[1555.8,1416.8,684],[0.610933,-0.631791,0.409325,-0.245349],[-1,-2,0,1],[9.0000E+09,9.0000E+09,9.0000E+09,9.0000E+09,9.0000E+09,9.0000E+09]];
CONST robtarget Calib_72:=[[1380.7,-665.12,651.26],[0.610826,-0.631798,0.409259,-0.245298],[0,-1,-1,1],[9.0000E+09,9.0000E+09,9.0000E+09,9.0000E+09,9.0000E+09,9.0000E+09]];
CONST robtarget Calib_73:=[[1651.4,1036,1247.9],[0.610859,-0.631805,0.409315,-0.245209],[-1,-2,0,1],[9.0000E+09,9.0000E+09,9.0000E+09,9.0000E+09,9.0000E+09,9.0000E+09]];
CONST robtarget Calib_74:=[[1286.7,1057.7,691.19],[0.610962,-0.631816,0.409155,-0.245286],[-1,-2,0,1],[9.0000E+09,9.0000E+09,9.0000E+09,9.0000E+09,9.0000E+09,9.0000E+09]];
CONST robtarget Calib_75:=[[1704.6,-946.64,1357.9],[0.610960,-0.631823,0.409179,-0.245216],[0,0,-2,1],[9.0000E+09,9.0000E+09,9.0000E+09,9.0000E+09,9.0000E+09,9.0000E+09]];
CONST robtarget Calib_76:=[[1487.9,1144.1,1345.7],[0.610822,-0.631813,0.409294,-0.245256],[0,-1,-1,1],[9.0000E+09,9.0000E+09,9.0000E+09,9.0000E+09,9.0000E+09,9.0000E+09]];
CONST robtarget Calib_77:=[[1329.1,-674.88,896.67],[0.610854,-0.631803,0.409163,-0.245210],[-1,-2,0,1],[9.0000E+09,9.0000E+09,9.0000E+09,9.0000E+09,9.0000E+09,9.0000E+09]];
CONST robtarget Calib_78:=[[1369.6,638.66,1477.8],[0.610968,-0.631805,0.409145,-0.245363],[0,-1,-1,1],[9.0000E+09,9.0000E+09,9.0000E+09,9.0000E+09,9.0000E+09,9.0000E+09]];
CONST robtarget Calib_79:=[[1650.6,-977.59,1075.4],[0.610954,-0.631812,0.409235,-0.245255],[0,0,-2,1],[9.0000E+09,9.0000E+09,9.0000E+09,9.0000E+09,9.0000E+09,9.0000E+09]];
CONST robtarget Calib_80:=[[1721.4,-705.13,1158],[0.610862,-0.631793,0.409205,-0.245279],[-1,-2,0,1],[9.0000E+09,9.0000E+09,9.0000E+09,9.0000E+09,9.0000E+09,9.0000E+09]];
CONST robtarget Calib_81:=[[2225.2,659.22,842.11],[0.610854,-0.631798,0.409253,-0.245189],[-1,-1,-1,1],[9.0000E+09,9.0000E+09,9.0000E+09,9.0000E+09,9.0000E+09,9.0000E+09]];
CONST robtarget Calib_82:=[[1597.3,1377.4,1051.1],[0.610894,-0.631824,0.409265,-0.245352],[0,0,-2,1],[9.0000E+09,9.0000E+09,9.0000E+09,9.0000E+09,9.0000E+09,9.0000E+09]];
CONST robtarget Calib_83:=[[1769.8,1005.8,1310.9],[0.610809,-0.631802,0.409155,-0.245189],[-1,-1,-1,1],[9.0000E+09,9.0000E+09,9.0000E+09,9.0000E+09,9.0000E+09,9.0000E+09]];
CONST robtarget Calib_84:=[[1909.9,852.69,857.07],[0.610922,-0.631791,0.409309,-0.245275],[0,0,-2,1],[9.0000E+09,9.0000E+09,9.0000E+09,9.0000E+09,9.0000E+09,9.0000E+09]];
CONST robtarget Calib_85:=[[1768.7,1109.4,1254.9],[0.610907,-0.631793,0.409272,-0.245282],[0,-1,-1,1],[9.0000E+09,9.0000E+09,9.0000E+09,9.0000E+09,9.0000E+09,9.0000E+09]];
CONST robtarget Calib_86:=[[1326.8,821.66,1217.6],[0.610924,-0.631800,0.409143,-0.245258],[-1,-2,0,1],[9.0000E+09,9.0000E+09,9.0000E+09,9.0000E+09,9.0000E+09,9.0000E+09]];
CONST robtarget Calib_87:=[[1362.2,1080.4,987.18],[0.610872,-0.631795,0.409281,-0.245216],[0,0,-2,1],[9.0000E+09,9.0000E+09,9.0000E+09,9.0000E+09,9.0000E+09,9.0000E+09]];
CONST robtarget Calib_88:=[[1780.2,-701.88,843.91],[0.610926,-0.631814,0.409220,-0.245327],[-1,-2,0,1],[9.0000E+09,9.0000E+09,9.0000E+09,9.0000E+09,9.0000E+09,9.0000E+09]];
CONST robtarget Calib_89:=[[1463.4,1271,1452.8],[0.610936,-0.631813,0.409204,-0.245212],[-1,-2,0,1],[9.0000E+09,9.0000E+09,9.0000E+09,9.0000E+09,9.0000E+09,9.0000E+09]];
CONST robtarget Calib_90:=[[1510.6,1461.8,1329.6],[0.610850,-0.631809,0.409203,-0.245302],[0,0,-2,1],[9.0000E+09,9.0000E+09,9.0000E+09,9.0000E+09,9.0000E+09,9.0000E+09]];
CONST robtarget Calib_91:=[[1617.1,714.2,1078.6],[0.610806,-0.631818,0.409219,-0.245213],[0,-1,-1,1],[9.0000E+09,9.0000E+09,9.0000E+09,9.0000E+09,9.0000E+09,9.0000E+09]];
CONST robtarget Calib_92:=[[1442.6,911.37,775.95],[0.610813,-0.631803,0.409200,-0.245243],[-1,-1,-1,1],[9.0000E+09,9.0000E+09,9.0000E+09,9.0000E+09,9.0000E+09,9.0000E+09]];
CONST robtarget Calib_93:=[[1960.7,-674.79,1260.3],[0.610879,-0.631819,0.409323,-0.245357],[0,-1,-1,1],[9.0000E+09,9.0000E+09,9.0000E+09,9.0000E+09,9.0000E+09,9.0000E+09]];
CONST robtarget Calib_94:=[[1692.8,930.89,632.57],[0.610822,-0.631814,0.409204,-0.245250],[-1,-2,0,1],[9.0000E+09,9.0000E+09,9.0000E+09,9.0000E+09,9.0000E+09,9.0000E+09]];
CONST robtarget Calib_95:=[[1960.5,-627.32,1241.3],[0.610806,-0.631806,0.409222,-0.245286],[0,-1,-1,1],[9.0000E+09,9.0000E+09,9.0000E+09,9.0000E+09,9.0000E+09,9.0000E+09]];
CONST robtarget Calib_96:=[[1516.4,816.83,1556.5],[0.610859,-0.631796,0.409201,-0.245275],[0,0,-2,1],[9.0000E+09,9.0000E+09,9.0000E+09,9.0000E+09,9.0000E+09,9.0000E+09]];
CONST robtarget Calib_97:=[[1577,663.72,1203.1],[0.610970,-0.631789,0.409255,-0.245307],[0,0,-2,1],[9.0000E+09,9.0000E+09,9.0000E+09,9.0000E+09,9.0000E+09,9.0000E+09]];
CONST robtarget Calib_98:=[[2102.6,871.65,721.56],[0.610935,-0.631802,0.409259,-0.245333],[0,-1,-1,1],[9.0000E+09,9.0000E+09,9.0000E+09,9.0000E+09,9.0000E+09,9.0000E+09]];
CONST robtarget Calib_99:=[[1641.3,-848.1,1557.1],[0.610907,-0.631808,0.409192,-0.245325],[0,-1,-1,1],[9.0000E+09,9.0000E+09,9.0000E+09,9.0000E+09,9.0000E+09,9.0000E+09]];
CONST robtarget Calib_100:=[[1619.7,-840.7,1276.5],[0.610834,-0.631815,0.409256,-0.245237],[-1,-1,-1,1],[9.0000E+09,9.0000E+09,9.0000E+09,9.0000E+09,9.0000E+09,9.0000E+09]];
CONST robtarget Calib_101:=[[1549.7,-959.15,1586.9],[0.610913,-0.631807,0.409240,-0.245320],[-1,-1,-1,1],[9.0000E+09,9.0000E+09,9.0000E+09,9.0000E+09,9.0000E+09,9.0000E+09]];
CONST robtarget Calib_102:=[[1310.3,1454.3,977.17],[0.610941,-0.631822,0.409177,-0.245380],[0,-1,-1,1],[9.0000E+09,9.0000E+09,9.0000E+09,9.0000E+09,9.0000E+09,9.0000E+09]];
CONST robtarget Calib_103:=[[1456.8,1203.3,1069.2],[0.610814,-0.631818,0.409148,-0.245269],[-1,-2,0,1],[9.0000E+09,9.0000E+09,9.0000E+09,9.0000E+09,9.0000E+09,9.0000E+09]];
CONST robtarget Calib_104:=[[1446,1357.8,1224.5],[0.610885,-0.631811,0.409236,-0.245315],[0,-1,-1,1],[9.0000E+09,9.0000E+09,9.0000E+09,9.0000E+09,9.0000E+09,9.0000E+09]];
CONST robtarget Calib_105:=[[1348.8,-1049,784.56],[0.610863,-0.631824,0.409169,-0.245192],[0,-1,-1,1],[9.0000E+09,9.0000E+09,9.0000E+09,9.0000E+09,9.0000E+09,9.0000E+09]];
CONST robtarget Calib_106:=[[1575.5,781.62,875.73],[0.610880,-0.631804,0.409163,-0.245198],[-1,-2,0,1],[9.0000E+09,9.0000E+09,9.0000E+09,9.0000E+09,9.0000E+09,9.0000E+09]];
CONST robtarget Calib_107:=[[1423.6,1184.4,1489.9],[0.610899,-0.631822,0.409233,-0.245194],[0,-1,-1,1],[9.0000E+09,9.0000E+09,9.0000E+09,9.0000E+09,9.0000E+09,9.0000E+09]];
CONST robtarget Calib_108:=[[1510.1,774.5,1236.4],[0.610807,-0.631794,0.409330,-0.245267],[0,-1,-1,1],[9.0000E+09,9.0000E+09,9.0000E+09,9.0000E+09,9.0000E+09,9.0000E+09]];
CONST robtarget Calib_109:=[[1394.7,1466.3,751.95],[0.610941,-0.631814,0.409148,-0.245355],[0,0,-2,1],[9.0000E+09,9.0000E+09,9.0000E+09,9.0000E+09,9.0000E+09,9.0000E+09]];
CONST robtarget Calib_110:=[[1577.1,736.53,1054.5],[0.610955,-0.631788,0.409244,-0.245206],[-1,-1,-1,1],[9.0000E+09,9.0000E+09,9.0000E+09,9.0000E+09,9.0000E+09,9.0000E+09]];
CONST robtarget Calib_111:=[[1265.7,-945.76,1089.2],[0.610824,-0.631787,0.409210,-0.245373],[0,0,-2,1],[9.0000E+09,9.0000E+09,9.0000E+09,9.0000E+09,9.0000E+09,9.0000E+09]];
CONST robtarget Calib_112:=[[1501.3,681.84,1506.2],[0.610948,-0.631801,0.409225,-0.245228],[0,0,-2,1],[9.0000E+09,9.0000E+09,9.0000E+09,9.0000E+09,9.0000E+09,9.0000E+09]];
CONST robtarget Calib_113:=[[1313,1486.9,1255],[0.610863,-0.631787,0.409322,-0.245298],[0,-1,-1,1],[9.0000E+09,9.0000E+09,9.0000E+09,9.0000E+09,9.0000E+09,9.0000E+09]];
CONST robtarget Calib_114:=[[1692.8,869.94,1506.5],[0.610813,-0.631823,0.409203,-0.245297],[0,-1,-1,1],[9.0000E+09,9.0000E+09,9.0000E+09,9.0000E+09,9.0000E+09,9.0000E+09]];
CONST robtarget Calib_115:=[[1818.5,985.98,1085.9],[0.610918,-0.631810,0.409156,-0.245319],[-1,-2,0,1],[9.0000E+09,9.0000E+09,9.0000E+09,9.0000E+09,9.0000E+09,9.0000E+09]];
CONST robtarget Calib_116:=[[1915.6,-987.95,698.07],[0.610968,-0.631795,0.409276,-0.245261],[0,-1,-1,1],[9.0000E+09,9.0000E+09,9.0000E+09,9.0000E+09,9.0000E+09,9.0000E+09]];
CONST robtarget Calib_117:=[[1534.6,1627.5,1107.4],[0.610851,-0.631827,0.409326,-0.245261],[-1,-1,-1,1],[9.0000E+09,9.0000E+09,9.0000E+09,9.0000E+09,9.0000E+09,9.0000E+09]];
CONST robtarget Calib_118:=[[1934.3,-901.31,883.4],[0.610949,-0.631814,0.409221,-0.245276],[-1,-2,0,1],[9.0000E+09,9.0000E+09,9.0000E+09,9.0000E+09,9.0000E+09,9.0000E+09]];
CONST robtarget Calib_119:=[[1250.6,959.66,883.4],[0.610840,-0.631797,0.409242,-0.245207],[0,-1,-1,1],[9.0000E+09,9.0000E+09,9.0000E+09,9.0000E+09,9.0000E+09,9.0000E+09]];
CONST robtarget Calib_120:=[[1214.5,1030.9,1252.3],[0.610968,-0.631821,0.409278,-0.245280],[-1,-2,0,1],[9.0000E+09,9.0000E+09,9.0000E+09,9.0000E+09,9.0000E+09,9.0000E+09]];
CONST robtarget Calib_121:=[[1312.7,-790.84,887.59],[0.610866,-0.631825,0.409203,-0.245221],[0,0,-2,1],[9.0000E+09,9.0000E+09,9.0000E+09,9.0000E+09,9.0000E+09,9.0000E+09]];
CONST robtarget Calib_122:=[[1319.7,-652.6,1244.4],[0.610856,-0.631818,0.409176,-0.245219],[-1,-2,0,1],[9.0000E+09,9.0000E+09,9.0000E+09,9.0000E+09,9.0000E+09,9.0000E+09]];
CONST robtarget Calib_123:=[[1453.2,-642.52,1234],[0.610834,-0.631793,0.409177,-0.245362],[-1,-1,-1,1],[9.0000E+09,9.0000E+09,9.0000E+09,9.0000E+09,9.0000E+09,9.0000E+09]];
CONST robtarget Calib_124:=[[2109.9,626,687.93],[0.610925,-0.631810,0.409286,-0.245255],[0,-1,-1,1],[9.0000E+09,9.0000E+09,9.0000E+09,9.0000E+09,9.0000E+09,9.0000E+09]];
CONST robtarget Calib_125:=[[1776.1,679.72,941.35],[0.610834,-0.631825,0.409328,-0.245277],[-1,-2,0,1],[9.0000E+09,9.0000E+09,9.0000E+09,9.0000E+09,9.0000E+09,9.0000E+09]];
CONST robtarget Calib_126:=[[1238.8,1031.9,1095.1],[0.610843,-0.631791,0.409157,-0.245225],[-1,-2,0,1],[9.0000E+09,9.0000E+09,9.0000E+09,9.0000E+09,9.0000E+09,9.0000E+09]];
CONST robtarget Calib_127:=[[1788.4,1372.1,849.66],[0.610873,-0.631824,0.409164,-0.245354],[0,0,-2,1],[9.0000E+09,9.0000E+09,9.0000E+09,9.0000E+09,9.0000E+09,9.0000E+09]];
CONST robtarget Calib_128:=[[1779.8,-740.71,680.37],[0.610881,-0.631794,0.409265,-0.245184],[-1,-1,-1,1],[9.0000E+09,9.0000E+09,9.0000E+09,9.0000E+09,9.0000E+09,9.0000E+09]];
CONST robtarget Calib_129:=[[1747,1176.9,789.07],[0.610825,-0.631811,0.409173,-0.245360],[-1,-2,0,1],[9.0000E+09,9.0000E+09,9.0000E+09,9.0000E+09,9.0000E+09,9.0000E+09]];
CONST robtarget Calib_130:=[[1694.5,1009.7,1523.4],[0.610864,-0.631817,0.409286,-0.245328],[-1,-1,-1,1],[9.0000E+09,9.0000E+09,9.0000E+09,9.0000E+09,9.0000E+09,9.0000E+09]];
CONST robtarget Calib_131:=[[1865.4,1032.8,852.68],[0.610911,-0.631803,0.409144,-0.245355],[0,0,-2,1],[9.0000E+09,9.0000E+09,9.0000E+09,9.0000E+09,9.0000E+09,9.0000E+09]];
CONST robtarget Calib_132:=[[2123.2,-676.92,767.15],[0.610921,-0.631791,0.409306,-0.245205],[-1,-2,0,1],[9.0000E+09,9.0000E+09,9.0000E+09,9.0000E+09,9.0000E+09,9.0000E+09]];
CONST robtarget Calib_133:=[[1574.4,1086.4,1242.4],[0.610877,-0.631805,0.409297,-0.245276],[0,-1,-1,1],[9.0000E+09,9.0000E+09,9.0000E+09,9.0000E+09,9.0000E+09,9.0000E+09]];
CONST robtarget Calib_134:=[[1569.5,868.71,653.37],[0.610947,-0.631805,0.409201,-0.245312],[0,-1,-1,1],[9.0000E+09,9.0000E+09,9.0000E+09,9.0000E+09,9.0000E+09,9.0000E+09]];
CONST robtarget Calib_135:=[[1213.1,850.67,879.43],[0.610814,-0.631823,0.409244,-0.245248],[0,-1,-1,1],[9.0000E+09,9.0000E+09,9.0000E+09,9.0000E+09,9.0000E+09,9.0000E+09]];
CONST robtarget Calib_136:=[[1259.3,1200.8,775.6],[0.610958,-0.631793,0.409191,-0.245178],[0,0,-2,1],[9.0000E+09,9.0000E+09,9.0000E+09,9.0000E+09,9.0000E+09,9.0000E+09]];
CONST robtarget Calib_137:=[[1245.8,-803.01,1227.4],[0.610817,-0.631815,0.409237,-0.245357],[0,-1,-1,1],[9.0000E+09,9.0000E+09,9.0000E+09,9.0000E+09,9.0000E+09,9.0000E+09]];
CONST robtarget Calib_138:=[[1879.4,1425.1,630.17],[0.610879,-0.631814,0.409206,-0.245374],[0,-1,-1,1],[9.0000E+09,9.0000E+09,9.0000E+09,9.0000E+09,9.0000E+09,9.0000E+09]];
CONST robtarget Calib_139:=[[1721.3,859.06,692.9],[0.610846,-0.631809,0.409327,-0.245315],[0,0,-2,1],[9.0000E+09,9.0000E+09,9.0000E+09,9.0000E+09,9.0000E+09,9.0000E+09]];
CONST robtarget Calib_140:=[[1964.5,1014.4,1018.4],[0.610880,-0.631803,0.409216,-0.245262],[-1,-2,0,1],[9.0000E+09,9.0000E+09,9.0000E+09,9.0000E+09,9.0000E+09,9.0000E+09]];
CONST robtarget Calib_141:=[[1593.2,1211.6,820.32],[0.610905,-0.631816,0.409150,-0.245298],[0,0,-2,1],[9.0000E+09,9.0000E+09,9.0000E+09,9.0000E+09,9.0000E+09,9.0000E+09]];
CONST robtarget Calib_142:=[[1384.6,873.25,1282.8],[0.610886,-0.631793,0.409173,-0.245261],[0,0,-2,1],[9.0000E+09,9.0000E+09,9.0000E+09,9.0000E+09,9.0000E+09,9.0000E+09]];
CONST robtarget Calib_143:=[[1638.4,792.93,824.47],[0.610865,-0.631825,0.409285,-0.245335],[0,-1,-1,1],[9.0000E+09,9.0000E+09,9.0000E+09,9.0000E+09,9.0000E+09,9.0000E+09]];
CONST robtarget Calib_144:=[[1886.8,-620.7,1362.1],[0.610918,-0.631820,0.409310,-0.245256],[0,-1,-1,1],[9.0000E+09,9.0000E+09,9.0000E+09,9.0000E+09,9.0000E+09,9.0000E+09]];
CONST robtarget Calib_145:=[[1291.1,1087.3,1500.1],[0.610874,-0.631813,0.409159,-0.245218],[0,0,-2,1],[9.0000E+09,9.0000E+09,9.0000E+09,9.0000E+09,9.0000E+09,9.0000E+09]];
CONST robtarget Calib_146:=[[1424.4,-965.01,1471.6],[0.610949,-0.631810,0.409260,-0.245355],[0,-1,-1,1],[9.0000E+09,9.0000E+09,9.0000E+09,9.0000E+09,9.0000E+09,9.0000E+09]];
CONST robtarget Calib_147:=[[1703.4,1125.1,745.32],[0.610805,-0.631799,0.409142,-0.245250],[0,0,-2,1],[9.0000E+09,9.0000E+09,9.0000E+09,9.0000E+09,9.0000E+09,9.0000E+09]];
CONST robtarget Calib_148:=[[1658.8,660.67,1043.9],[0.610838,-0.631809,0.409244,-0.245208],[-1,-2,0,1],[9.0000E+09,9.0000E+09,9.0000E+09,9.0000E+09,9.0000E+09,9.0000E+09]];
CONST robtarget Calib_149:=[[1524.6,1504.9,668.56],[0.610886,-0.631819,0.409317,-0.245368],[0,0,-2,1],[9.0000E+09,9.0000E+09,9.0000E+09,9.0000E+09,9.0000E+09,9.0000E+09]];
CONST robtarget Calib_150:=[[1522.2,-779.86,1041.5],[0.610878,-0.631789,0.409326,-0.245331],[-1,-1,-1,1],[9.0000E+09,9.0000E+09,9.0000E+09,9.0000E+09,9.0000E+09,9.0000E+09]];
CONST robtarget Calib_151:=[[1434.1,1364,1438.4],[0.610880,-0.631808,0.409207,-0.245310],[0,0,-2,1],[9.0000E+09,9.0000E+09,9.0000E+09,9.0000E+09,9.0000E+09,9.0000E+09]];
CONST robtarget Calib_152:=[[1817.5,-723.47,918.91],[0.610961,-0.631821,0.409242,-0.245178],[-1,-2,0,1],[9.0000E+09,9.0000E+09,9.0000E+09,9.0000E+09,9.0000E+09,9.0000E+09]];
CONST robtarget Calib_153:=[[1303.7,-630.12,971.08],[0.610805,-0.631787,0.409182,-0.245230],[0,-1,-1,1],[9.0000E+09,9.0000E+09,9.0000E+09,9.0000E+09,9.0000E+09,9.0000E+09]];
CONST robtarget Calib_154:=[[1258.3,1557.5,1109.7],[0.610850,-0.631797,0.409323,-0.245235],[-1,-1,-1,1],[9.0000E+09,9.0000E+09,9.0000E+09,9.0000E+09,9.0000E+09,9.0000E+09]];
CONST robtarget Calib_155:=[[1237.2,1655,852.07],[0.610830,-0.631823,0.409223,-0.245336],[-1,-1,-1,1],[9.0000E+09,9.0000E+09,9.0000E+09,9.0000E+09,9.0000E+09,9.0000E+09]];
CONST robtarget Calib_156:=[[1584.9,745.83,1264.7],[0.610881,-0.631789,0.409205,-0.245212],[0,-1,-1,1],[9.0000E+09,9.0000E+09,9.0000E+09,9.0000E+09,9.0000E+09,9.0000E+09]];
CONST robtarget Calib_157:=[[1625.7,1064.4,890.72],[0.610933,-0.631803,0.409159,-0.245277],[0,-1,-1,1],[9.0000E+09,9.0000E+09,9.0000E+09,9.0000E+09,9.0000E+09,9.0000E+09]];
CONST robtarget Calib_158:=[[1408.5,1451.5,1065.1],[0.610883,-0.631801,0.409210,-0.245233],[0,-1,-1,1],[9.0000E+09,9.0000E+09,9.0000E+09,9.0000E+09,9.0000E+09,9.0000E+09]];
CONST robtarget Calib_159:=[[1951.4,918.44,944.52],[0.610824,-0.631807,0.409251,-0.245236],[0,-1,-1,1],[9.0000E+09,9.0000E+09,9.0000E+09,9.0000E+09,9.0000E+09,9.0000E+09]];
CONST robtarget Calib_160:=[[2065.7,-947.44,1041.1],[0.610909,-0.631823,0.409200,-0.245371],[0,-1,-1,1],[9.0000E+09,9.0000E+09,9.0000E+09,9.0000E+09,9.0000E+09,9.0000E+09]];
CONST robtarget Calib_161:=[[1340.2,631.92,1583.1],[0.610804,-0.631815,0.409279,-0.245228],[-1,-2,0,1],[9.0000E+09,9.0000E+09,9.0000E+09,9.0000E+09,9.0000E+09,9.0000E+09]];
CONST robtarget Calib_162:=[[1421.2,1218.3,853.31],[0.610954,-0.631807,0.409199,-0.245226],[-1,-2,0,1],[9.0000E+09,9.0000E+09,9.0000E+09,9.0000E+09,9.0000E+09,9.0000E+09]];
CONST robtarget Calib_163:=[[2051.3,1030.3,705.6],[0.610857,-0.631821,0.409181,-0.245353],[-1,-2,0,1],[9.0000E+09,9.0000E+09,9.0000E+09,9.0000E+09,9.0000E+09,9.0000E+09]];
CONST robtarget Calib_164:=[[1347.7,-729.87,908.83],[0.610809,-0.631813,0.409169,-0.245238],[0,-1,-1,1],[9.0000E+09,9.0000E+09,9.0000E+09,9.0000E+09,9.0000E+09,9.0000E+09]];
CONST robtarget Calib_165:=[[2008.4,766.41,1158.3],[0.610880,-0.631815,0.409261,-0.245301],[-1,-2,0,1],[9.0000E+09,9.0000E+09,9.0000E+09,9.0000E+09,9.0000E+09,9.0000E+09]];
CONST robtarget Calib_166:=[[1948.7,790.96,845.13],[0.610810,-0.631812,0.409159,-0.245247],[0,0,-2,1],[9.0000E+09,9.0000E+09,9.0000E+09,9.0000E+09,9.0000E+09,9.0000E+09]];
CONST robtarget Calib_167:=[[2221.6,910.03,658.47],[0.610964,-0.631792,0.409173,-0.245333],[0,-1,-1,1],[9.0000E+09,9.0000E+09,9.0000E+09,9.0000E+09,9.0000E+09,9.0000E+09]];
CONST robtarget Calib_168:=[[1763.6,1549.2,681.15],[0.610821,-0.631810,0.409161,-0.245336],[0,-1,-1,1],[9.0000E+09,9.0000E+09,9.0000E+09,9.0000E+09,9.0000E+09,9.0000E+09]];
CONST robtarget Calib_169:=[[2061.2,719.97,905.62],[0.610819,-0.631809,0.409187,-0.245188],[0,-1,-1,1],[9.0000E+09,9.0000E+09,9.0000E+09,9.0000E+09,9.0000E+09,9.0000E+09]];
CONST robtarget Calib_170:=[[1792,-877.72,893.92],[0.610917,-0.631804,0.409216,-0.245225],[0,0,-2,1],[9.0000E+09,9.0000E+09,9.0000E+09,9.0000E+09,9.0000E+09,9.0000E+09]];
CONST robtarget Calib_171:=[[1902.4,672.39,792.57],[0.610832,-0.631790,0.409142,-0.245269],[0,-1,-1,1],[9.0000E+09,9.0000E+09,9.0000E+09,9.0000E+09,9.0000E+09,9.0000E+09]];
CONST robtarget Calib_172:=[[1646.3,1212.8,715.01],[0.610904,-0.631806,0.409246,-0.245269],[0,-1,-1,1],[9.0000E+09,9.0000E+09,9.0000E+09,9.0000E+09,9.0000E+09,9.0000E+09]];
CONST robtarget Calib_173:=[[1361,1032.9,654.66],[0.610889,-0.631797,0.409155,-0.245183],[-1,-1,-1,1],[9.0000E+09,9.0000E+09,9.0000E+09,9.0000E+09,9.0000E+09,9.0000E+09]];
CONST robtarget Calib_174:=[[1311,-870.11,1480.1],[0.610904,-0.631817,0.409229,-0.245264],[0,-1,-1,1],[9.0000E+09,9.0000E+09,9.0000E+09,9.0000E+09,9.0000E+09,9.0000E+09]];
CONST robtarget Calib_175:=[[1376.3,-687.87,791.88],[0.610882,-0.631818,0.409247,-0.245368],[0,-1,-1,1],[9.0000E+09,9.0000E+09,9.0000E+09,9.0000E+09,9.0000E+09,9.0000E+09]];
CONST robtarget Calib_176:=[[1436.7,-704.74,1540.1],[0.610959,-0.631823,0.409282,-0.245196],[-1,-2,0,1],[9.0000E+09,9.0000E+09,9.0000E+09,9.0000E+09,9.0000E+09,9.0000E+09]];
CONST robtarget Calib_177:=[[1230.9,-622.29,1089.1],[0.610924,-0.631811,0.409297,-0.245336],[0,-1,-1,1],[9.0000E+09,9.0000E+09,9.0000E+09,9.0000E+09,9.0000E+09,9.0000E+09]];
CONST robtarget Calib_178:=[[1647.6,-763.6,783.58],[0.610815,-0.631822,0.409295,-0.245320],[-1,-2,0,1],[9.0000E+09,9.0000E+09,9.0000E+09,9.0000E+09,9.0000E+09,9.0000E+09]];
CONST robtarget Calib_179:=[[1306.7,1440,1117.6],[0.610894,-0.631800,0.409221,-0.245239],[0,-1,-1,1],[9.0000E+09,9.0000E+09,9.0000E+09,9.0000E+09,9.0000E+09,9.0000E+09]];
CONST robtarget Calib_180:=[[1462.6,855.87,1027.5],[0.610882,-0.631817,0.409297,-0.245332],[-1,-2,0,1],[9.0000E+09,9.0000E+09,9.0000E+09,9.0000E+09,9.0000E+09,9.0000E+09]];
CONST robtarget Calib_181:=[[1951.2,1028.7,894.77],[0.610861,-0.631815,0.409153,-0.245340],[-1,-2,0,1],[9.0000E+09,9.0000E+09,9.0000E+09,9.0000E+09,9.0000E+09,9.0000E+09]];
CONST robtarget Calib_182:=[[1814,1270.2,947.38],[0.610822,-0.631796,0.409252,-0.245383],[0,-1,-1,1],[9.0000E+09,9.0000E+09,9.0000E+09,9.0000E+09,9.0000E+09,9.0000E+09]];
CONST robtarget Calib_183:=[[1750.3,754.69,1184.4],[0.610874,-0.631790,0.409172,-0.245177],[-1,-2,0,1],[9.0000E+09,9.0000E+09,9.0000E+09,9.0000E+09,9.0000E+09,9.0000E+09]];
CONST robtarget Calib_184:=[[1311.3,-771.85,715.9],[0.610893,-0.631813,0.409206,-0.245345],[-1,-2,0,1],[9.0000E+09,9.0000E+09,9.0000E+09,9.0000E+09,9.0000E+09,9.0000E+09]];
CONST robtarget Calib_185:=[[1504.1,1704.7,897.11],[0.610921,-0.631800,0.409282,-0.245311],[0,-1,-1,1],[9.0000E+09,9.0000E+09,9.0000E+09,9.0000E+09,9.0000E+09,9.0000E+09]];
CONST robtarget Calib_186:=[[1744.5,-843.55,820.93],[0.610813,-0.631805,0.409217,-0.245366],[-1,-1,-1,1],[9.0000E+09,9.0000E+09,9.0000E+09,9.0000E+09,9.0000E+09,9.0000E+09]];
CONST robtarget Calib_187:=[[1936.9,1081.8,768.01],[0.610888,-0.631821,0.409316,-0.245202],[0,-1,-1,1],[9.0000E+09,9.0000E+09,9.0000E+09,9.0000E+09,9.0000E+09,9.0000E+09]];
CONST robtarget Calib_188:=[[1628.1,-925.74,1350.8],[0.610893,-0.631815,0.409192,-0.245347],[-1,-2,0,1],[9.0000E+09,9.0000E+09,9.0000E+09,9.0000E+09,9.0000E+09,9.0000E+09]];
CONST robtarget Calib_189:=[[1961.9,1078.5,1055.9],[0.610818,-0.631821,0.409180,-0.245218],[0,-1,-1,1],[9.0000E+09,9.0000E+09,9.0000E+09,9.0000E+09,9.0000E+09,9.0000E+09]];
CONST robtarget Calib_190:=[[1535,-953.22,1003.6],[0.610928,-0.631790,0.409224,-0.245216],[0,-1,-1,1],[9.0000E+09,9.0000E+09,9.0000E+09,9.0000E+09,9.0000E+09,9.0000E+09]];
CONST robtarget Calib_191:=[[1227.6,-646.51,1487],[0.610972,-0.631822,0.409310,-0.245372],[0,-1,-1,1],[9.0000E+09,9.0000E+09,9.0000E+09,9.0000E+09,9.0000E+09,9.0000E+09]];
CONST robtarget Calib_192:=[[1516.9,-1005.2,1124.8],[0.610896,-0.631826,0.409152,-0.245220],[0,-1,-1,1],[9.0000E+09,9.0000E+09,9.0000E+09,9.0000E+09,9.0000E+09,9.0000E+09]];
CONST robtarget Calib_193:=[[1562,803.44,1209.3],[0.610956,-0.631807,0.409206,-0.245186],[-1,-2,0,1],[9.0000E+09,9.0000E+09,9.0000E+09,9.0000E+09,9.0000E+09,9.0000E+09]];
CONST robtarget Calib_194:=[[2012.8,-1045.9,699.81],[0.610827,-0.631799,0.409310,-0.245225],[-1,-1,-1,1],[9.0000E+09,9.0000E+09,9.0000E+09,9.0000E+09,9.0000E+09,9.0000E+09]];
CONST robtarget Calib_195:=[[2237.2,-765.19,704.1],[0.610879,-0.631819,0.409234,-0.245346],[-1,-1,-1,1],[9.0000E+09,9.0000E+09,9.0000E+09,9.0000E+09,9.0000E+09,9.0000E+09]];
CONST robtarget Calib_196:=[[1773.6,642.5,1064.2],[0.610877,-0.631819,0.409192,-0.245349],[-1,-1,-1,1],[9.0000E+09,9.0000E+09,9.0000E+09,9.0000E+09,9.0000E+09,9.0000E+09]];
CONST robtarget Calib_197:=[[2083.9,-695.53,1145.3],[0.610850,-0.631807,0.409192,-0.245185],[-1,-2,0,1],[9.0000E+09,9.0000E+09,9.0000E+09,9.0000E+09,9.0000E+09,9.0000E+09]];
CONST robtarget Calib_198:=[[1955.1,-982.33,904.89],[0.610938,-0.631821,0.409317,-0.245184],[-1,-2,0,1],[9.0000E+09,9.0000E+09,9.0000E+09,9.0000E+09,9.0000E+09,9.0000E+09]];
CONST robtarget Calib_199:=[[1693.1,1226.5,768.38],[0.610869,-0.631815,0.409294,-0.245358],[-1,-2,0,1],[9.0000E+09,9.0000E+09,9.0000E+09,9.0000E+09,9.0000E+09,9.0000E+09]];
CONST robtarget Calib_200:=[[1540.4,951.64,1478.9],[0.610915,-0.631789,0.409240,-0.245234],[0,-1,-1,1],[9.0000E+09,9.0000E+09,9.0000E+09,9.0000E+09,9.0000E+09,9.0000E+09]];
