CONST robtarget Calib_1:=[[1126.2,-820.33,654.45],[0.674462,-0.335814,0.612303,0.239616],[-1,-1,0,1],[9.0000E+09,9.0000E+09,9.0000E+09,9.0000E+09,9.0000E+09,9.0000E+09]];
CONST robtarget Calib_2:=[[1200,-531.28,1279.4],[-0.674462,0.335814,0.612303,0.239616],[-1,-1,1,1],[9.0000E+09,9.0000E+09,9.0000E+09,9.0000E+09,9.0000E+09,9.0000E+09]];
CONST robtarget Calib_3:=[[815.76,-233.45,1302.4],[0.674461,-0.335814,0.612303,0.239616],[0,0,0,1],[9.0000E+09,9.0000E+09,9.0000E+09,9.0000E+09,9.0000E+09,9.0000E+09]];
CONST robtarget Calib_4:=[[1362.1,-516.06,728.58],[-0.674462,0.335814,0.612303,0.239616],[-1,-1,1,1],[9.0000E+09,9.0000E+09,9.0000E+09,9.0000E+09,9.0000E+09,9.0000E+09]];
CONST robtarget Calib_5:=[[1093.6,-165.41,288.08],[0.674461,-0.335814,0.612303,0.239616],[-1,-1,0,1],[9.0000E+09,9.0000E+09,9.0000E+09,9.0000E+09,9.0000E+09,9.0000E+09]];
CONST robtarget Calib_6:=[[600.39,-205.77,970.47],[-0.674462,0.335814,0.612303,0.239616],[0,0,0,1],[9.0000E+09,9.0000E+09,9.0000E+09,9.0000E+09,9.0000E+09,9.0000E+09]];
CONST robtarget Calib_7:=[[703.79,-691.36,564.57],[0.674462,-0.335814,0.612303,0.239616],[0,0,-1,1],[9.0000E+09,9.0000E+09,9.0000E+09,9.0000E+09,9.0000E+09,9.0000E+09]];
CONST robtarget Calib_8:=[[1203.3,-734.06,873.5],[-0.674462,0.335814,0.612303,0.239616],[-1,-1,0,1],[9.0000E+09,9.0000E+09,9.0000E+09,9.0000E+09,9.0000E+09,9.0000E+09]];
CONST robtarget Calib_9:=[[567.58,-256.79,274.77],[0.674461,-0.335814,0.612303,0.239616],[0,0,-1,1],[9.0000E+09,9.0000E+09,9.0000E+09,9.0000E+09,9.0000E+09,9.0000E+09]];
CONST robtarget Calib_10:=[[674.33,563.29,708.28],[-0.674462,0.335814,0.612303,0.239616],[0,0,-1,1],[9.0000E+09,9.0000E+09,9.0000E+09,9.0000E+09,9.0000E+09,9.0000E+09]];
CONST robtarget Calib_11:=[[940.2,1088.4,1071.2],[0.674462,-0.335814,0.612303,0.239616],[0,0,0,1],[9.0000E+09,9.0000E+09,9.0000E+09,9.0000E+09,9.0000E+09,9.0000E+09]];
CONST robtarget Calib_12:=[[776.79,-222.22,608.26],[-0.674461,0.335814,0.612303,0.239616],[0,0,0,1],[9.0000E+09,9.0000E+09,9.0000E+09,9.0000E+09,9.0000E+09,9.0000E+09]];
CONST robtarget Calib_13:=[[635.54,584.39,1268.6],[0.674462,-0.335814,0.612303,0.239616],[0,0,-1,1],[9.0000E+09,9.0000E+09,9.0000E+09,9.0000E+09,9.0000E+09,9.0000E+09]];
CONST robtarget Calib_14:=[[1403.7,-158.13,659.25],[-0.674461,0.335814,0.612303,0.239616],[-1,-1,0,1],[9.0000E+09,9.0000E+09,9.0000E+09,9.0000E+09,9.0000E+09,9.0000E+09]];
CONST robtarget Calib_15:=[[982.73,-895.4,929.55],[0.674462,-0.335814,0.612303,0.239616],[0,0,0,1],[9.0000E+09,9.0000E+09,9.0000E+09,9.0000E+09,9.0000E+09,9.0000E+09]];
CONST robtarget Calib_16:=[[1657.2,-393.77,505.37],[-0.674461,0.335814,0.612303,0.239616],[0,0,-1,1],[9.0000E+09,9.0000E+09,9.0000E+09,9.0000E+09,9.0000E+09,9.0000E+09]];
CONST robtarget Calib_17:=[[956.05,-477.37,378.62],[0.674461,-0.335814,0.612303,0.239616],[-1,-1,0,1],[9.0000E+09,9.0000E+09,9.0000E+09,9.0000E+09,9.0000E+09,9.0000E+09]];
CONST robtarget Calib_18:=[[1270.3,888.45,489.86],[-0.674462,0.335814,0.612303,0.239616],[0,0,0,1],[9.0000E+09,9.0000E+09,9.0000E+09,9.0000E+09,9.0000E+09,9.0000E+09]];
CONST robtarget Calib_19:=[[563.91,786.67,402.9],[0.674462,-0.335814,0.612303,0.239616],[-1,-1,1,1],[9.0000E+09,9.0000E+09,9.0000E+09,9.0000E+09,9.0000E+09,9.0000E+09]];
CONST robtarget Calib_20:=[[1045.8,-916.75,668.58],[-0.674462,0.335814,0.612303,0.239616],[-1,-1,1,1],[9.0000E+09,9.0000E+09,9.0000E+09,9.0000E+09,9.0000E+09,9.0000E+09]];
CONST robtarget Calib_21:=[[1168.7,394.42,384.61],[0.674462,-0.335814,0.612303,0.239616],[-1,0,0,1],[9.0000E+09,9.0000E+09,9.0000E+09,9.0000E+09,9.0000E+09,9.0000E+09]];
CONST robtarget Calib_22:=[[780.62,852.18,1066.4],[-0.674462,0.335814,0.612303,0.239616],[0,0,-1,1],[9.0000E+09,9.0000E+09,9.0000E+09,9.0000E+09,9.0000E+09,9.0000E+09]];
CONST robtarget Calib_23:=[[1024.4,223.48,229.44],[0.674462,-0.335814,0.612303,0.239616],[0,0,-1,1],[9.0000E+09,9.0000E+09,9.0000E+09,9.0000E+09,9.0000E+09,9.0000E+09]];
CONST robtarget Calib_24:=[[1297.5,792.22,981.19],[-0.674461,0.335814,0.612303,0.239616],[0,0,0,1],[9.0000E+09,9.0000E+09,9.0000E+09,9.0000E+09,9.0000E+09,9.0000E+09]];
CONST robtarget Calib_25:=[[716.5,501.53,1111.9],[0.674461,-0.335814,0.612303,0.239616],[-1,-1,0,1],[9.0000E+09,9.0000E+09,9.0000E+09,9.0000E+09,9.0000E+09,9.0000E+09]];
CONST robtarget Calib_26:=[[881.91,182.01,750.22],[-0.674461,0.335814,0.612303,0.239616],[0,0,0,1],[9.0000E+09,9.0000E+09,9.0000E+09,9.0000E+09,9.0000E+09,9.0000E+09]];
CONST robtarget Calib_27:=[[938.6,1153.6,673.97],[0.674461,-0.335814,0.612303,0.239616],[0,0,-1,1],[9.0000E+09,9.0000E+09,9.0000E+09,9.0000E+09,9.0000E+09,9.0000E+09]];
CONST robtarget Calib_28:=[[559.75,534.07,1293.4],[-0.674461,0.335814,0.612303,0.239616],[-1,-1,1,1],[9.0000E+09,9.0000E+09,9.0000E+09,9.0000E+09,9.0000E+09,9.0000E+09]];
CONST robtarget Calib_29:=[[1118.2,-557.86,507.97],[0.674461,-0.335814,0.612303,0.239616],[-1,-1,1,1],[9.0000E+09,9.0000E+09,9.0000E+09,9.0000E+09,9.0000E+09,9.0000E+09]];
CONST robtarget Calib_30:=[[941.81,438.19,664.17],[-0.674461,0.335814,0.612303,0.239616],[0,0,-1,1],[9.0000E+09,9.0000E+09,9.0000E+09,9.0000E+09,9.0000E+09,9.0000E+09]];
CONST robtarget Calib_31:=[[1638.8,-414.08,227.52],[0.674461,-0.335814,0.612303,0.239616],[-1,-1,0,1],[9.0000E+09,9.0000E+09,9.0000E+09,9.0000E+09,9.0000E+09,9.0000E+09]];
CONST robtarget Calib_32:=[[1434.1,-329.89,250.13],[-0.674462,0.335814,0.612303,0.239616],[0,0,0,1],[9.0000E+09,9.0000E+09,9.0000E+09,9.0000E+09,9.0000E+09,9.0000E+09]];
CONST robtarget Calib_33:=[[771.53,268.52,955.64],[0.674461,-0.335814,0.612303,0.239616],[-1,0,0,1],[9.0000E+09,9.0000E+09,9.0000E+09,9.0000E+09,9.0000E+09,9.0000E+09]];
CONST robtarget Calib_34:=[[601.41,-187.6,1263],[-0.674462,0.335814,0.612303,0.239616],[-1,0,0,1],[9.0000E+09,9.0000E+09,9.0000E+09,9.0000E+09,9.0000E+09,9.0000E+09]];
CONST robtarget Calib_35:=[[1194.1,-256.86,553.42],[0.674462,-0.335814,0.612303,0.239616],[0,0,0,1],[9.0000E+09,9.0000E+09,9.0000E+09,9.0000E+09,9.0000E+09,9.0000E+09]];
CONST robtarget Calib_36:=[[1127.7,-110.49,731.9],[-0.674462,0.335814,0.612303,0.239616],[-1,-1,0,1],[9.0000E+09,9.0000E+09,9.0000E+09,9.0000E+09,9.0000E+09,9.0000E+09]];
CONST robtarget Calib_37:=[[1762.5,246.57,313.43],[0.674461,-0.335814,0.612303,0.239616],[-1,-1,1,1],[9.0000E+09,9.0000E+09,9.0000E+09,9.0000E+09,9.0000E+09,9.0000E+09]];
CONST robtarget Calib_38:=[[671.21,-250.31,740.19],[-0.674461,0.335814,0.612303,0.239616],[0,0,-1,1],[9.0000E+09,9.0000E+09,9.0000E+09,9.0000E+09,9.0000E+09,9.0000E+09]];
CONST robtarget Calib_39:=[[1412.7,-219.42,472.51],[0.674461,-0.335814,0.612303,0.239616],[0,0,-1,1],[9.0000E+09,9.0000E+09,9.0000E+09,9.0000E+09,9.0000E+09,9.0000E+09]];
CONST robtarget Calib_40:=[[1146.2,-523.25,253.9],[-0.674461,0.335814,0.612303,0.239616],[0,0,0,1],[9.0000E+09,9.0000E+09,9.0000E+09,9.0000E+09,9.0000E+09,9.0000E+09]];
CONST robtarget Calib_41:=[[1369.1,-758.17,919.74],[0.674461,-0.335814,0.612303,0.239616],[0,0,-1,1],[9.0000E+09,9.0000E+09,9.0000E+09,9.0000E+09,9.0000E+09,9.0000E+09]];
CONST robtarget Calib_42:=[[796.37,1043.8,1109.5],[-0.674462,0.335814,0.612303,0.239616],[0,0,0,1],[9.0000E+09,9.0000E+09,9.0000E+09,9.0000E+09,9.0000E+09,9.0000E+09]];
CONST robtarget Calib_43:=[[921.75,-751.1,1094.9],[0.674462,-0.335814,0.612303,0.239616],[-1,-1,0,1],[9.0000E+09,9.0000E+09,9.0000E+09,9.0000E+09,9.0000E+09,9.0000E+09]];
CONST robtarget Calib_44:=[[1719.7,148.51,606.88],[-0.674461,0.335814,0.612303,0.239616],[-1,-1,0,1],[9.0000E+09,9.0000E+09,9.0000E+09,9.0000E+09,9.0000E+09,9.0000E+09]];
CONST robtarget Calib_45:=[[732.79,647.9,1181.4],[0.674462,-0.335814,0.612303,0.239616],[0,0,0,1],[9.0000E+09,9.0000E+09,9.0000E+09,9.0000E+09,9.0000E+09,9.0000E+09]];
CONST robtarget Calib_46:=[[1266,572.9,619.27],[-0.674462,0.335814,0.612303,0.239616],[-1,-1,1,1],[9.0000E+09,9.0000E+09,9.0000E+09,9.0000E+09,9.0000E+09,9.0000E+09]];
CONST robtarget Calib_47:=[[1004,-215.35,794.44],[0.674462,-0.335814,0.612303,0.239616],[0,0,-1,1],[9.0000E+09,9.0000E+09,9.0000E+09,9.0000E+09,9.0000E+09,9.0000E+09]];
CONST robtarget Calib_48:=[[559.62,-175.35,815.82],[-0.674462,0.335814,0.612303,0.239616],[-1,-1,1,1],[9.0000E+09,9.0000E+09,9.0000E+09,9.0000E+09,9.0000E+09,9.0000E+09]];
CONST robtarget Calib_49:=[[905.19,240.85,874.76],[0.674462,-0.335814,0.612303,0.239616],[-1,-1,1,1],[9.0000E+09,9.0000E+09,9.0000E+09,9.0000E+09,9.0000E+09,9.0000E+09]];
CONST robtarget Calib_50:=[[977.21,-778.47,959.03],[-0.674462,0.335814,0.612303,0.239616],[-1,0,0,1],[9.0000E+09,9.0000E+09,9.0000E+09,9.0000E+09,9.0000E+09,9.0000E+09]];
CONST robtarget Calib_51:=[[1010.1,-888.5,466.76],[0.674461,-0.335814,0.612303,0.239616],[-1,-1,0,1],[9.0000E+09,9.0000E+09,9.0000E+09,9.0000E+09,9.0000E+09,9.0000E+09]];
CONST robtarget Calib_52:=[[677.15,607.36,1048.9],[-0.674462,0.335814,0.612303,0.239616],[0,0,0,1],[9.0000E+09,9.0000E+09,9.0000E+09,9.0000E+09,9.0000E+09,9.0000E+09]];
CONST robtarget Calib_53:=[[943.29,-378.75,383.17],[0.674462,-0.335814,0.612303,0.239616],[0,0,0,1],[9.0000E+09,9.0000E+09,9.0000E+09,9.0000E+09,9.0000E+09,9.0000E+09]];
CONST robtarget Calib_54:=[[678.5,-472.94,437.38],[-0.674462,0.335814,0.612303,0.239616],[-1,-1,1,1],[9.0000E+09,9.0000E+09,9.0000E+09,9.0000E+09,9.0000E+09,9.0000E+09]];
CONST robtarget Calib_55:=[[1120.1,722.66,837.93],[0.674462,-0.335814,0.612303,0.239616],[0,0,-1,1],[9.0000E+09,9.0000E+09,9.0000E+09,9.0000E+09,9.0000E+09,9.0000E+09]];
CONST robtarget Calib_56:=[[1116.7,1088.5,310.7],[-0.674461,0.335814,0.612303,0.239616],[0,0,-1,1],[9.0000E+09,9.0000E+09,9.0000E+09,9.0000E+09,9.0000E+09,9.0000E+09]];
CONST robtarget Calib_57:=[[1257.8,-731.37,407.25],[0.674462,-0.335814,0.612303,0.239616],[-1,-1,0,1],[9.0000E+09,9.0000E+09,9.0000E+09,9.0000E+09,9.0000E+09,9.0000E+09]];
CONST robtarget Calib_58:=[[558.43,836.91,503.72],[-0.674461,0.335814,0.612303,0.239616],[-1,-1,0,1],[9.0000E+09,9.0000E+09,9.0000E+09,9.0000E+09,9.0000E+09,9.0000E+09]];
CONST robtarget Calib_59:=[[1530,553.29,458.17],[0.674462,-0.335814,0.612303,0.239616],[0,0,-1,1],[9.0000E+09,9.0000E+09,9.0000E+09,9.0000E+09,9.0000E+09,9.0000E+09]];
CONST robtarget Calib_60:=[[570.5,937.87,331.4],[-0.674461,0.335814,0.612303,0.239616],[-1,-1,0,1],[9.0000E+09,9.0000E+09,9.0000E+09,9.0000E+09,9.0000E+09,9.0000E+09]];
CONST robtarget Calib_61:=[[1146.2,292.02,650.67],[0.674461,-0.335814,0.612303,0.239616],[-1,-1,1,1],[9.0000E+09,9.0000E+09,9.0000E+09,9.0000E+09,9.0000E+09,9.0000E+09]];
CONST robtarget Calib_62:=[[1062.2,1060.4,986.55],[-0.674461,0.335814,0.612303,0.239616],[-1,-1,0,1],[9.0000E+09,9.0000E+09,9.0000E+09,9.0000E+09,9.0000E+09,9.0000E+09]];
CONST robtarget Calib_63:=[[622.74,-282.7,1289.8],[0.674461,-0.335814,0.612303,0.239616],[-1,-1,1,1],[9.0000E+09,9.0000E+09,9.0000E+09,9.0000E+09,9.0000E+09,9.0000E+09]];
CONST robtarget Calib_64:=[[955.27,-269.88,355.79],[-0.674462,0.335814,0.612303,0.239616],[0,0,0,1],[9.0000E+09,9.0000E+09,9.0000E+09,9.0000E+09,9.0000E+09,9.0000E+09]];
CONST robtarget Calib_65:=[[1298.5,-214.27,854.32],[0.674461,-0.335814,0.612303,0.239616],[-1,-1,0,1],[9.0000E+09,9.0000E+09,9.0000E+09,9.0000E+09,9.0000E+09,9.0000E+09]];
CONST robtarget Calib_66:=[[619.46,-206.77,286.76],[-0.674462,0.335814,0.612303,0.239616],[0,0,-1,1],[9.0000E+09,9.0000E+09,9.0000E+09,9.0000E+09,9.0000E+09,9.0000E+09]];
CONST robtarget Calib_67:=[[1040.1,-515.78,1268.4],[0.674461,-0.335814,0.612303,0.239616],[0,0,-1,1],[9.0000E+09,9.0000E+09,9.0000E+09,9.0000E+09,9.0000E+09,9.0000E+09]];
CONST robtarget Calib_68:=[[1318.9,139.69,310.92],[-0.674461,0.335814,0.612303,0.239616],[-1,-1,1,1],[9.0000E+09,9.0000E+09,9.0000E+09,9.0000E+09,9.0000E+09,9.0000E+09]];
CONST robtarget Calib_69:=[[1625.4,215.08,795.85],[0.674461,-0.335814,0.612303,0.239616],[0,0,-1,1],[9.0000E+09,9.0000E+09,9.0000E+09,9.0000E+09,9.0000E+09,9.0000E+09]];
CONST robtarget Calib_70:=[[1013.4,986.3,782.41],[-0.674462,0.335814,0.612303,0.239616],[-1,-1,0,1],[9.0000E+09,9.0000E+09,9.0000E+09,9.0000E+09,9.0000E+09,9.0000E+09]];
CONST robtarget Calib_71:=[[643.7,442.18,1265.6],[0.674461,-0.335814,0.612303,0.239616],[0,0,0,1],[9.0000E+09,9.0000E+09,9.0000E+09,9.0000E+09,9.0000E+09,9.0000E+09]];
CONST robtarget Calib_72:=[[675.22,-862.09,387.67],[-0.674462,0.335814,0.612303,0.239616],[-1,-1,0,1],[9.0000E+09,9.0000E+09,9.0000E+09,9.0000E+09,9.0000E+09,9.0000E+09]];
CONST robtarget Calib_73:=[[740.69,329.29,846.31],[0.674461,-0.335814,0.612303,0.239616],[0,0,-1,1],[9.0000E+09,9.0000E+09,9.0000E+09,9.0000E+09,9.0000E+09,9.0000E+09]];
CONST robtarget Calib_74:=[[1079,1035.8,232.08],[-0.674462,0.335814,0.612303,0.239616],[0,0,-1,1],[9.0000E+09,9.0000E+09,9.0000E+09,9.0000E+09,9.0000E+09,9.0000E+09]];
CONST robtarget Calib_75:=[[874.89,1001.3,1010.1],[0.674462,-0.335814,0.612303,0.239616],[-1,-1,0,1],[9.0000E+09,9.0000E+09,9.0000E+09,9.0000E+09,9.0000E+09,9.0000E+09]];
CONST robtarget Calib_76:=[[1004.3,-566.73,322.22],[-0.674461,0.335814,0.612303,0.239616],[-1,-1,1,1],[9.0000E+09,9.0000E+09,9.0000E+09,9.0000E+09,9.0000E+09,9.0000E+09]];
CONST robtarget Calib_77:=[[1458.7,-665.24,823.69],[0.674461,-0.335814,0.612303,0.239616],[0,0,-1,1],[9.0000E+09,9.0000E+09,9.0000E+09,9.0000E+09,9.0000E+09,9.0000E+09]];
CONST robtarget Calib_78:=[[569.08,761.87,996.17],[-0.674462,0.335814,0.612303,0.239616],[0,0,-1,1],[9.0000E+09,9.0000E+09,9.0000E+09,9.0000E+09,9.0000E+09,9.0000E+09]];
CONST robtarget Calib_79:=[[1075.2,-376.31,1102.2],[0.674462,-0.335814,0.612303,0.239616],[0,0,-1,1],[9.0000E+09,9.0000E+09,9.0000E+09,9.0000E+09,9.0000E+09,9.0000E+09]];
CONST robtarget Calib_80:=[[1242.9,598.47,476.03],[-0.674462,0.335814,0.612303,0.239616],[0,0,-1,1],[9.0000E+09,9.0000E+09,9.0000E+09,9.0000E+09,9.0000E+09,9.0000E+09]];
CONST robtarget Calib_81:=[[981.69,249.02,901.39],[0.674461,-0.335814,0.612303,0.239616],[-1,-1,0,1],[9.0000E+09,9.0000E+09,9.0000E+09,9.0000E+09,9.0000E+09,9.0000E+09]];
CONST robtarget Calib_82:=[[1569.2,730.12,570.24],[-0.674461,0.335814,0.612303,0.239616],[0,0,-1,1],[9.0000E+09,9.0000E+09,9.0000E+09,9.0000E+09,9.0000E+09,9.0000E+09]];
CONST robtarget Calib_83:=[[1010.3,282.24,507.06],[0.674462,-0.335814,0.612303,0.239616],[-1,0,0,1],[9.0000E+09,9.0000E+09,9.0000E+09,9.0000E+09,9.0000E+09,9.0000E+09]];
CONST robtarget Calib_84:=[[1635.8,-398.35,334.72],[-0.674462,0.335814,0.612303,0.239616],[0,0,-1,1],[9.0000E+09,9.0000E+09,9.0000E+09,9.0000E+09,9.0000E+09,9.0000E+09]];
CONST robtarget Calib_85:=[[1125.8,-158.39,570.35],[0.674461,-0.335814,0.612303,0.239616],[-1,-1,0,1],[9.0000E+09,9.0000E+09,9.0000E+09,9.0000E+09,9.0000E+09,9.0000E+09]];
CONST robtarget Calib_86:=[[1192,724.95,724.47],[-0.674461,0.335814,0.612303,0.239616],[0,0,-1,1],[9.0000E+09,9.0000E+09,9.0000E+09,9.0000E+09,9.0000E+09,9.0000E+09]];
CONST robtarget Calib_87:=[[581.51,187.26,1031.4],[0.674462,-0.335814,0.612303,0.239616],[-1,-1,0,1],[9.0000E+09,9.0000E+09,9.0000E+09,9.0000E+09,9.0000E+09,9.0000E+09]];
CONST robtarget Calib_88:=[[951.54,345.31,482.51],[-0.674461,0.335814,0.612303,0.239616],[0,0,0,1],[9.0000E+09,9.0000E+09,9.0000E+09,9.0000E+09,9.0000E+09,9.0000E+09]];
CONST robtarget Calib_89:=[[737.86,589.03,314.02],[0.674462,-0.335814,0.612303,0.239616],[0,0,-1,1],[9.0000E+09,9.0000E+09,9.0000E+09,9.0000E+09,9.0000E+09,9.0000E+09]];
CONST robtarget Calib_90:=[[990.61,-580.93,852.52],[-0.674462,0.335814,0.612303,0.239616],[-1,0,0,1],[9.0000E+09,9.0000E+09,9.0000E+09,9.0000E+09,9.0000E+09,9.0000E+09]];
CONST robtarget Calib_91:=[[631.62,764.99,493.19],[0.674462,-0.335814,0.612303,0.239616],[0,0,-1,1],[9.0000E+09,9.0000E+09,9.0000E+09,9.0000E+09,9.0000E+09,9.0000E+09]];
CONST robtarget Calib_92:=[[1112.3,-220.77,1173.6],[-0.674461,0.335814,0.612303,0.239616],[-1,-1,0,1],[9.0000E+09,9.0000E+09,9.0000E+09,9.0000E+09,9.0000E+09,9.0000E+09]];
CONST robtarget Calib_93:=[[1332.6,-718.27,555.5],[0.674462,-0.335814,0.612303,0.239616],[0,0,0,1],[9.0000E+09,9.0000E+09,9.0000E+09,9.0000E+09,9.0000E+09,9.0000E+09]];
CONST robtarget Calib_94:=[[1648.2,175.82,740.81],[-0.674462,0.335814,0.612303,0.239616],[-1,0,0,1],[9.0000E+09,9.0000E+09,9.0000E+09,9.0000E+09,9.0000E+09,9.0000E+09]];
CONST robtarget Calib_95:=[[1400.2,456.97,1058.1],[0.674462,-0.335814,0.612303,0.239616],[0,0,-1,1],[9.0000E+09,9.0000E+09,9.0000E+09,9.0000E+09,9.0000E+09,9.0000E+09]];
CONST robtarget Calib_96:=[[1409.1,614.61,769.78],[-0.674461,0.335814,0.612303,0.239616],[-1,-1,1,1],[9.0000E+09,9.0000E+09,9.0000E+09,9.0000E+09,9.0000E+09,9.0000E+09]];
CONST robtarget Calib_97:=[[741.88,-339.36,409.98],[0.674462,-0.335814,0.612303,0.239616],[0,0,-1,1],[9.0000E+09,9.0000E+09,9.0000E+09,9.0000E+09,9.0000E+09,9.0000E+09]];
CONST robtarget Calib_98:=[[1518,253.65,318.78],[-0.674461,0.335814,0.612303,0.239616],[0,0,0,1],[9.0000E+09,9.0000E+09,9.0000E+09,9.0000E+09,9.0000E+09,9.0000E+09]];
CONST robtarget Calib_99:=[[1272.1,-346.27,1026],[0.674461,-0.335814,0.612303,0.239616],[0,0,-1,1],[9.0000E+09,9.0000E+09,9.0000E+09,9.0000E+09,9.0000E+09,9.0000E+09]];
CONST robtarget Calib_100:=[[698.39,-918.44,951.72],[-0.674461,0.335814,0.612303,0.239616],[0,0,-1,1],[9.0000E+09,9.0000E+09,9.0000E+09,9.0000E+09,9.0000E+09,9.0000E+09]];
