CONST robtarget Calib_1:=[[1329.1,-857.43,1554.8],[0.610811,-0.631819,0.409330,-0.245311],[0,0,-2,1],[9.0000E+09,9.0000E+09,9.0000E+09,9.0000E+09,9.0000E+09,9.0000E+09]];
CONST robtarget Calib_2:=[[1387.9,718.01,1123.2],[0.610935,-0.631800,0.409318,-0.245244],[0,0,-2,1],[9.0000E+09,9.0000E+09,9.0000E+09,9.0000E+09,9.0000E+09,9.0000E+09]];
CONST robtarget Calib_3:=[[2110.7,1146.8,652.66],[0.610858,-0.631806,0.409167,-0.245304],[0,0,-2,1],[9.0000E+09,9.0000E+09,9.0000E+09,9.0000E+09,9.0000E+09,9.0000E+09]];
CONST robtarget Calib_4:=[[1776.7,-973.38,641.63],[0.610883,-0.631786,0.409176,-0.245334],[0,0,-2,1],[9.0000E+09,9.0000E+09,9.0000E+09,9.0000E+09,9.0000E+09,9.0000E+09]];
CONST robtarget Calib_5:=[[1311,1536.1,1178.8],[0.610823,-0.631822,0.409293,-0.245311],[0,0,-2,1],[9.0000E+09,9.0000E+09,9.0000E+09,9.0000E+09,9.0000E+09,9.0000E+09]];
CONST robtarget Calib_6:=[[1718.7,802.7,687.04],[0.610888,-0.631823,0.409227,-0.245374],[0,0,-2,1],[9.0000E+09,9.0000E+09,9.0000E+09,9.0000E+09,9.0000E+09,9.0000E+09]];
CONST robtarget Calib_7:=[[1656.1,1044,844.5],[0.610931,-0.631796,0.409283,-0.245214],[0,0,-2,1],[9.0000E+09,9.0000E+09,9.0000E+09,9.0000E+09,9.0000E+09,9.0000E+09]];
CONST robtarget Calib_8:=[[1220.1,-805.14,1469.8],[0.610866,-0.631811,0.409189,-0.245285],[0,0,-2,1],[9.0000E+09,9.0000E+09,9.0000E+09,9.0000E+09,9.0000E+09,9.0000E+09]];
CONST robtarget Calib_9:=[[1575.7,-1001.6,1519.5],[0.610869,-0.631806,0.409169,-0.245355],[0,0,-2,1],[9.0000E+09,9.0000E+09,9.0000E+09,9.0000E+09,9.0000E+09,9.0000E+09]];
CONST robtarget Calib_10:=[[1421.5,-786.64,1391.7],[0.610869,-0.631816,0.409247,-0.245251],[0,0,-2,1],[9.0000E+09,9.0000E+09,9.0000E+09,9.0000E+09,9.0000E+09,9.0000E+09]];
CONST robtarget Calib_11:=[[1992.4,690.06,1006.3],[0.610865,-0.631804,0.409191,-0.245177],[0,0,-2,1],[9.0000E+09,9.0000E+09,9.0000E+09,9.0000E+09,9.0000E+09,9.0000E+09]];
CONST robtarget Calib_12:=[[1807,1109,895.53],[0.610891,-0.631786,0.409254,-0.245324],[0,0,-2,1],[9.0000E+09,9.0000E+09,9.0000E+09,9.0000E+09,9.0000E+09,9.0000E+09]];
CONST robtarget Calib_13:=[[1327.9,-832.03,1442.9],[0.610823,-0.631818,0.409220,-0.245304],[0,0,-2,1],[9.0000E+09,9.0000E+09,9.0000E+09,9.0000E+09,9.0000E+09,9.0000E+09]];
CONST robtarget Calib_14:=[[1830.8,649.3,1073.7],[0.610912,-0.631808,0.409162,-0.245298],[0,0,-2,1],[9.0000E+09,9.0000E+09,9.0000E+09,9.0000E+09,9.0000E+09,9.0000E+09]];
CONST robtarget Calib_15:=[[1915.7,-757.29,1027],[0.610911,-0.631817,0.409172,-0.245219],[0,0,-2,1],[9.0000E+09,9.0000E+09,9.0000E+09,9.0000E+09,9.0000E+09,9.0000E+09]];
CONST robtarget Calib_16:=[[1313.8,-654.14,732.05],[0.610865,-0.631823,0.409182,-0.245368],[0,0,-2,1],[9.0000E+09,9.0000E+09,9.0000E+09,9.0000E+09,9.0000E+09,9.0000E+09]];
CONST robtarget Calib_17:=[[1771.4,-969.51,1397.5],[0.610859,-0.631788,0.409324,-0.245362],[0,0,-2,1],[9.0000E+09,9.0000E+09,9.0000E+09,9.0000E+09,9.0000E+09,9.0000E+09]];
CONST robtarget Calib_18:=[[1729.9,-826.28,1386.3],[0.610934,-0.631815,0.409325,-0.245324],[0,0,-2,1],[9.0000E+09,9.0000E+09,9.0000E+09,9.0000E+09,9.0000E+09,9.0000E+09]];
CONST robtarget Calib_19:=[[1704.6,-946.64,1357.9],[0.610960,-0.631823,0.409179,-0.245216],[0,0,-2,1],[9.0000E+09,9.0000E+09,9.0000E+09,9.0000E+09,9.0000E+09,9.0000E+09]];
CONST robtarget Calib_20:=[[1650.6,-977.59,1075.4],[0.610954,-0.631812,0.409235,-0.245255],[0,0,-2,1],[9.0000E+09,9.0000E+09,9.0000E+09,9.0000E+09,9.0000E+09,9.0000E+09]];
CONST robtarget Calib_21:=[[1597.3,1377.4,1051.1],[0.610894,-0.631824,0.409265,-0.245352],[0,0,-2,1],[9.0000E+09,9.0000E+09,9.0000E+09,9.0000E+09,9.0000E+09,9.0000E+09]];
CONST robtarget Calib_22:=[[1909.9,852.69,857.07],[0.610922,-0.631791,0.409309,-0.245275],[0,0,-2,1],[9.0000E+09,9.0000E+09,9.0000E+09,9.0000E+09,9.0000E+09,9.0000E+09]];
CONST robtarget Calib_23:=[[1362.2,1080.4,987.18],[0.610872,-0.631795,0.409281,-0.245216],[0,0,-2,1],[9.0000E+09,9.0000E+09,9.0000E+09,9.0000E+09,9.0000E+09,9.0000E+09]];
CONST robtarget Calib_24:=[[1510.6,1461.8,1329.6],[0.610850,-0.631809,0.409203,-0.245302],[0,0,-2,1],[9.0000E+09,9.0000E+09,9.0000E+09,9.0000E+09,9.0000E+09,9.0000E+09]];
CONST robtarget Calib_25:=[[1516.4,816.83,1556.5],[0.610859,-0.631796,0.409201,-0.245275],[0,0,-2,1],[9.0000E+09,9.0000E+09,9.0000E+09,9.0000E+09,9.0000E+09,9.0000E+09]];
CONST robtarget Calib_26:=[[1577,663.72,1203.1],[0.610970,-0.631789,0.409255,-0.245307],[0,0,-2,1],[9.0000E+09,9.0000E+09,9.0000E+09,9.0000E+09,9.0000E+09,9.0000E+09]];
CONST robtarget Calib_27:=[[1394.7,1466.3,751.95],[0.610941,-0.631814,0.409148,-0.245355],[0,0,-2,1],[9.0000E+09,9.0000E+09,9.0000E+09,9.0000E+09,9.0000E+09,9.0000E+09]];
CONST robtarget Calib_28:=[[1265.7,-945.76,1089.2],[0.610824,-0.631787,0.409210,-0.245373],[0,0,-2,1],[9.0000E+09,9.0000E+09,9.0000E+09,9.0000E+09,9.0000E+09,9.0000E+09]];
CONST robtarget Calib_29:=[[1501.3,681.84,1506.2],[0.610948,-0.631801,0.409225,-0.245228],[0,0,-2,1],[9.0000E+09,9.0000E+09,9.0000E+09,9.0000E+09,9.0000E+09,9.0000E+09]];
CONST robtarget Calib_30:=[[1312.7,-790.84,887.59],[0.610866,-0.631825,0.409203,-0.245221],[0,0,-2,1],[9.0000E+09,9.0000E+09,9.0000E+09,9.0000E+09,9.0000E+09,9.0000E+09]];
CONST robtarget Calib_31:=[[1788.4,1372.1,849.66],[0.610873,-0.631824,0.409164,-0.245354],[0,0,-2,1],[9.0000E+09,9.0000E+09,9.0000E+09,9.0000E+09,9.0000E+09,9.0000E+09]];
CONST robtarget Calib_32:=[[1865.4,1032.8,852.68],[0.610911,-0.631803,0.409144,-0.245355],[0,0,-2,1],[9.0000E+09,9.0000E+09,9.0000E+09,9.0000E+09,9.0000E+09,9.0000E+09]];
CONST robtarget Calib_33:=[[1259.3,1200.8,775.6],[0.610958,-0.631793,0.409191,-0.245178],[0,0,-2,1],[9.0000E+09,9.0000E+09,9.0000E+09,9.0000E+09,9.0000E+09,9.0000E+09]];
CONST robtarget Calib_34:=[[1721.3,859.06,692.9],[0.610846,-0.631809,0.409327,-0.245315],[0,0,-2,1],[9.0000E+09,9.0000E+09,9.0000E+09,9.0000E+09,9.0000E+09,9.0000E+09]];
CONST robtarget Calib_35:=[[1593.2,1211.6,820.32],[0.610905,-0.631816,0.409150,-0.245298],[0,0,-2,1],[9.0000E+09,9.0000E+09,9.0000E+09,9.0000E+09,9.0000E+09,9.0000E+09]];
CONST robtarget Calib_36:=[[1384.6,873.25,1282.8],[0.610886,-0.631793,0.409173,-0.245261],[0,0,-2,1],[9.0000E+09,9.0000E+09,9.0000E+09,9.0000E+09,9.0000E+09,9.0000E+09]];
CONST robtarget Calib_37:=[[1291.1,1087.3,1500.1],[0.610874,-0.631813,0.409159,-0.245218],[0,0,-2,1],[9.0000E+09,9.0000E+09,9.0000E+09,9.0000E+09,9.0000E+09,9.0000E+09]];
CONST robtarget Calib_38:=[[1703.4,1125.1,745.32],[0.610805,-0.631799,0.409142,-0.245250],[0,0,-2,1],[9.0000E+09,9.0000E+09,9.0000E+09,9.0000E+09,9.0000E+09,9.0000E+09]];
CONST robtarget Calib_39:=[[1524.6,1504.9,668.56],[0.610886,-0.631819,0.409317,-0.245368],[0,0,-2,1],[9.0000E+09,9.0000E+09,9.0000E+09,9.0000E+09,9.0000E+09,9.0000E+09]];
CONST robtarget Calib_40:=[[1434.1,1364,1438.4],[0.610880,-0.631808,0.409207,-0.245310],[0,0,-2,1],[9.0000E+09,9.0000E+09,9.0000E+09,9.0000E+09,9.0000E+09,9.0000E+09]];
CONST robtarget Calib_41:=[[1948.7,790.96,845.13],[0.610810,-0.631812,0.409159,-0.245247],[0,0,-2,1],[9.0000E+09,9.0000E+09,9.0000E+09,9.0000E+09,9.0000E+09,9.0000E+09]];
CONST robtarget Calib_42:=[[1792,-877.72,893.92],[0.610917,-0.631804,0.409216,-0.245225],[0,0,-2,1],[9.0000E+09,9.0000E+09,9.0000E+09,9.0000E+09,9.0000E+09,9.0000E+09]];
