CONST robtarget Calib_1:=[[1627.5,826.18,1472.4],[0.610944,-0.631823,0.409297,-0.245350],[-1,-2,0,1],[9.0000E+09,9.0000E+09,9.0000E+09,9.0000E+09,9.0000E+09,9.0000E+09]];
CONST robtarget Calib_2:=[[2018.6,784.66,1024.1],[0.610923,-0.631799,0.409207,-0.245279],[-1,-2,0,1],[9.0000E+09,9.0000E+09,9.0000E+09,9.0000E+09,9.0000E+09,9.0000E+09]];
CONST robtarget Calib_3:=[[1547.1,-739.85,874.23],[0.610958,-0.631787,0.409235,-0.245287],[-1,-2,0,1],[9.0000E+09,9.0000E+09,9.0000E+09,9.0000E+09,9.0000E+09,9.0000E+09]];
CONST robtarget Calib_4:=[[1656.9,1427.9,868.91],[0.610863,-0.631822,0.409303,-0.245271],[-1,-2,0,1],[9.0000E+09,9.0000E+09,9.0000E+09,9.0000E+09,9.0000E+09,9.0000E+09]];
CONST robtarget Calib_5:=[[1232.9,874.41,1373.8],[0.610952,-0.631811,0.409273,-0.245331],[-1,-2,0,1],[9.0000E+09,9.0000E+09,9.0000E+09,9.0000E+09,9.0000E+09,9.0000E+09]];
CONST robtarget Calib_6:=[[1476.8,1510.8,736.56],[0.610842,-0.631817,0.409242,-0.245290],[-1,-2,0,1],[9.0000E+09,9.0000E+09,9.0000E+09,9.0000E+09,9.0000E+09,9.0000E+09]];
CONST robtarget Calib_7:=[[1803.8,-860.52,1113.4],[0.610846,-0.631810,0.409227,-0.245212],[-1,-2,0,1],[9.0000E+09,9.0000E+09,9.0000E+09,9.0000E+09,9.0000E+09,9.0000E+09]];
CONST robtarget Calib_8:=[[1979.5,-679.81,1121.6],[0.610920,-0.631796,0.409284,-0.245299],[-1,-2,0,1],[9.0000E+09,9.0000E+09,9.0000E+09,9.0000E+09,9.0000E+09,9.0000E+09]];
CONST robtarget Calib_9:=[[1240.4,645.35,677],[0.610864,-0.631809,0.409275,-0.245381],[-1,-2,0,1],[9.0000E+09,9.0000E+09,9.0000E+09,9.0000E+09,9.0000E+09,9.0000E+09]];
CONST robtarget Calib_10:=[[1360.3,1625.5,1206.4],[0.610886,-0.631819,0.409174,-0.245302],[-1,-2,0,1],[9.0000E+09,9.0000E+09,9.0000E+09,9.0000E+09,9.0000E+09,9.0000E+09]];
CONST robtarget Calib_11:=[[1464.9,845.59,1213.4],[0.610923,-0.631814,0.409316,-0.245261],[-1,-2,0,1],[9.0000E+09,9.0000E+09,9.0000E+09,9.0000E+09,9.0000E+09,9.0000E+09]];
CONST robtarget Calib_12:=[[1777.6,938.65,1216.3],[0.610933,-0.631822,0.409221,-0.245202],[-1,-2,0,1],[9.0000E+09,9.0000E+09,9.0000E+09,9.0000E+09,9.0000E+09,9.0000E+09]];
CONST robtarget Calib_13:=[[1812.4,1184.2,656.13],[0.610873,-0.631791,0.409147,-0.245301],[-1,-2,0,1],[9.0000E+09,9.0000E+09,9.0000E+09,9.0000E+09,9.0000E+09,9.0000E+09]];
CONST robtarget Calib_14:=[[1608.9,-787.36,1054.6],[0.610907,-0.631806,0.409305,-0.245205],[-1,-2,0,1],[9.0000E+09,9.0000E+09,9.0000E+09,9.0000E+09,9.0000E+09,9.0000E+09]];
CONST robtarget Calib_15:=[[1809,722.68,1112.8],[0.610828,-0.631802,0.409168,-0.245259],[-1,-2,0,1],[9.0000E+09,9.0000E+09,9.0000E+09,9.0000E+09,9.0000E+09,9.0000E+09]];
CONST robtarget Calib_16:=[[1301.5,1205.8,1106.3],[0.610953,-0.631802,0.409270,-0.245356],[-1,-2,0,1],[9.0000E+09,9.0000E+09,9.0000E+09,9.0000E+09,9.0000E+09,9.0000E+09]];
CONST robtarget Calib_17:=[[1606.4,960.96,827.2],[0.610850,-0.631795,0.409274,-0.245384],[-1,-2,0,1],[9.0000E+09,9.0000E+09,9.0000E+09,9.0000E+09,9.0000E+09,9.0000E+09]];
CONST robtarget Calib_18:=[[1255.5,983.77,727.76],[0.610870,-0.631816,0.409260,-0.245330],[-1,-2,0,1],[9.0000E+09,9.0000E+09,9.0000E+09,9.0000E+09,9.0000E+09,9.0000E+09]];
CONST robtarget Calib_19:=[[1521.3,-714.29,1416.7],[0.610910,-0.631812,0.409186,-0.245234],[-1,-2,0,1],[9.0000E+09,9.0000E+09,9.0000E+09,9.0000E+09,9.0000E+09,9.0000E+09]];
CONST robtarget Calib_20:=[[1555.8,1416.8,684],[0.610933,-0.631791,0.409325,-0.245349],[-1,-2,0,1],[9.0000E+09,9.0000E+09,9.0000E+09,9.0000E+09,9.0000E+09,9.0000E+09]];
CONST robtarget Calib_21:=[[1651.4,1036,1247.9],[0.610859,-0.631805,0.409315,-0.245209],[-1,-2,0,1],[9.0000E+09,9.0000E+09,9.0000E+09,9.0000E+09,9.0000E+09,9.0000E+09]];
CONST robtarget Calib_22:=[[1286.7,1057.7,691.19],[0.610962,-0.631816,0.409155,-0.245286],[-1,-2,0,1],[9.0000E+09,9.0000E+09,9.0000E+09,9.0000E+09,9.0000E+09,9.0000E+09]];
CONST robtarget Calib_23:=[[1329.1,-674.88,896.67],[0.610854,-0.631803,0.409163,-0.245210],[-1,-2,0,1],[9.0000E+09,9.0000E+09,9.0000E+09,9.0000E+09,9.0000E+09,9.0000E+09]];
CONST robtarget Calib_24:=[[1721.4,-705.13,1158],[0.610862,-0.631793,0.409205,-0.245279],[-1,-2,0,1],[9.0000E+09,9.0000E+09,9.0000E+09,9.0000E+09,9.0000E+09,9.0000E+09]];
CONST robtarget Calib_25:=[[1326.8,821.66,1217.6],[0.610924,-0.631800,0.409143,-0.245258],[-1,-2,0,1],[9.0000E+09,9.0000E+09,9.0000E+09,9.0000E+09,9.0000E+09,9.0000E+09]];
CONST robtarget Calib_26:=[[1780.2,-701.88,843.91],[0.610926,-0.631814,0.409220,-0.245327],[-1,-2,0,1],[9.0000E+09,9.0000E+09,9.0000E+09,9.0000E+09,9.0000E+09,9.0000E+09]];
CONST robtarget Calib_27:=[[1463.4,1271,1452.8],[0.610936,-0.631813,0.409204,-0.245212],[-1,-2,0,1],[9.0000E+09,9.0000E+09,9.0000E+09,9.0000E+09,9.0000E+09,9.0000E+09]];
CONST robtarget Calib_28:=[[1692.8,930.89,632.57],[0.610822,-0.631814,0.409204,-0.245250],[-1,-2,0,1],[9.0000E+09,9.0000E+09,9.0000E+09,9.0000E+09,9.0000E+09,9.0000E+09]];
CONST robtarget Calib_29:=[[1456.8,1203.3,1069.2],[0.610814,-0.631818,0.409148,-0.245269],[-1,-2,0,1],[9.0000E+09,9.0000E+09,9.0000E+09,9.0000E+09,9.0000E+09,9.0000E+09]];
CONST robtarget Calib_30:=[[1575.5,781.62,875.73],[0.610880,-0.631804,0.409163,-0.245198],[-1,-2,0,1],[9.0000E+09,9.0000E+09,9.0000E+09,9.0000E+09,9.0000E+09,9.0000E+09]];
CONST robtarget Calib_31:=[[1818.5,985.98,1085.9],[0.610918,-0.631810,0.409156,-0.245319],[-1,-2,0,1],[9.0000E+09,9.0000E+09,9.0000E+09,9.0000E+09,9.0000E+09,9.0000E+09]];
CONST robtarget Calib_32:=[[1934.3,-901.31,883.4],[0.610949,-0.631814,0.409221,-0.245276],[-1,-2,0,1],[9.0000E+09,9.0000E+09,9.0000E+09,9.0000E+09,9.0000E+09,9.0000E+09]];
CONST robtarget Calib_33:=[[1214.5,1030.9,1252.3],[0.610968,-0.631821,0.409278,-0.245280],[-1,-2,0,1],[9.0000E+09,9.0000E+09,9.0000E+09,9.0000E+09,9.0000E+09,9.0000E+09]];
CONST robtarget Calib_34:=[[1319.7,-652.6,1244.4],[0.610856,-0.631818,0.409176,-0.245219],[-1,-2,0,1],[9.0000E+09,9.0000E+09,9.0000E+09,9.0000E+09,9.0000E+09,9.0000E+09]];
CONST robtarget Calib_35:=[[1776.1,679.72,941.35],[0.610834,-0.631825,0.409328,-0.245277],[-1,-2,0,1],[9.0000E+09,9.0000E+09,9.0000E+09,9.0000E+09,9.0000E+09,9.0000E+09]];
CONST robtarget Calib_36:=[[1238.8,1031.9,1095.1],[0.610843,-0.631791,0.409157,-0.245225],[-1,-2,0,1],[9.0000E+09,9.0000E+09,9.0000E+09,9.0000E+09,9.0000E+09,9.0000E+09]];
CONST robtarget Calib_37:=[[1747,1176.9,789.07],[0.610825,-0.631811,0.409173,-0.245360],[-1,-2,0,1],[9.0000E+09,9.0000E+09,9.0000E+09,9.0000E+09,9.0000E+09,9.0000E+09]];
CONST robtarget Calib_38:=[[2123.2,-676.92,767.15],[0.610921,-0.631791,0.409306,-0.245205],[-1,-2,0,1],[9.0000E+09,9.0000E+09,9.0000E+09,9.0000E+09,9.0000E+09,9.0000E+09]];
CONST robtarget Calib_39:=[[1964.5,1014.4,1018.4],[0.610880,-0.631803,0.409216,-0.245262],[-1,-2,0,1],[9.0000E+09,9.0000E+09,9.0000E+09,9.0000E+09,9.0000E+09,9.0000E+09]];
CONST robtarget Calib_40:=[[1658.8,660.67,1043.9],[0.610838,-0.631809,0.409244,-0.245208],[-1,-2,0,1],[9.0000E+09,9.0000E+09,9.0000E+09,9.0000E+09,9.0000E+09,9.0000E+09]];
CONST robtarget Calib_41:=[[1817.5,-723.47,918.91],[0.610961,-0.631821,0.409242,-0.245178],[-1,-2,0,1],[9.0000E+09,9.0000E+09,9.0000E+09,9.0000E+09,9.0000E+09,9.0000E+09]];
CONST robtarget Calib_42:=[[1340.2,631.92,1583.1],[0.610804,-0.631815,0.409279,-0.245228],[-1,-2,0,1],[9.0000E+09,9.0000E+09,9.0000E+09,9.0000E+09,9.0000E+09,9.0000E+09]];
CONST robtarget Calib_43:=[[1421.2,1218.3,853.31],[0.610954,-0.631807,0.409199,-0.245226],[-1,-2,0,1],[9.0000E+09,9.0000E+09,9.0000E+09,9.0000E+09,9.0000E+09,9.0000E+09]];
CONST robtarget Calib_44:=[[2051.3,1030.3,705.6],[0.610857,-0.631821,0.409181,-0.245353],[-1,-2,0,1],[9.0000E+09,9.0000E+09,9.0000E+09,9.0000E+09,9.0000E+09,9.0000E+09]];
CONST robtarget Calib_45:=[[2008.4,766.41,1158.3],[0.610880,-0.631815,0.409261,-0.245301],[-1,-2,0,1],[9.0000E+09,9.0000E+09,9.0000E+09,9.0000E+09,9.0000E+09,9.0000E+09]];
CONST robtarget Calib_46:=[[1436.7,-704.74,1540.1],[0.610959,-0.631823,0.409282,-0.245196],[-1,-2,0,1],[9.0000E+09,9.0000E+09,9.0000E+09,9.0000E+09,9.0000E+09,9.0000E+09]];
CONST robtarget Calib_47:=[[1647.6,-763.6,783.58],[0.610815,-0.631822,0.409295,-0.245320],[-1,-2,0,1],[9.0000E+09,9.0000E+09,9.0000E+09,9.0000E+09,9.0000E+09,9.0000E+09]];
CONST robtarget Calib_48:=[[1462.6,855.87,1027.5],[0.610882,-0.631817,0.409297,-0.245332],[-1,-2,0,1],[9.0000E+09,9.0000E+09,9.0000E+09,9.0000E+09,9.0000E+09,9.0000E+09]];
CONST robtarget Calib_49:=[[1951.2,1028.7,894.77],[0.610861,-0.631815,0.409153,-0.245340],[-1,-2,0,1],[9.0000E+09,9.0000E+09,9.0000E+09,9.0000E+09,9.0000E+09,9.0000E+09]];
CONST robtarget Calib_50:=[[1750.3,754.69,1184.4],[0.610874,-0.631790,0.409172,-0.245177],[-1,-2,0,1],[9.0000E+09,9.0000E+09,9.0000E+09,9.0000E+09,9.0000E+09,9.0000E+09]];
CONST robtarget Calib_51:=[[1311.3,-771.85,715.9],[0.610893,-0.631813,0.409206,-0.245345],[-1,-2,0,1],[9.0000E+09,9.0000E+09,9.0000E+09,9.0000E+09,9.0000E+09,9.0000E+09]];
CONST robtarget Calib_52:=[[1628.1,-925.74,1350.8],[0.610893,-0.631815,0.409192,-0.245347],[-1,-2,0,1],[9.0000E+09,9.0000E+09,9.0000E+09,9.0000E+09,9.0000E+09,9.0000E+09]];
CONST robtarget Calib_53:=[[1562,803.44,1209.3],[0.610956,-0.631807,0.409206,-0.245186],[-1,-2,0,1],[9.0000E+09,9.0000E+09,9.0000E+09,9.0000E+09,9.0000E+09,9.0000E+09]];
CONST robtarget Calib_54:=[[2083.9,-695.53,1145.3],[0.610850,-0.631807,0.409192,-0.245185],[-1,-2,0,1],[9.0000E+09,9.0000E+09,9.0000E+09,9.0000E+09,9.0000E+09,9.0000E+09]];
CONST robtarget Calib_55:=[[1955.1,-982.33,904.89],[0.610938,-0.631821,0.409317,-0.245184],[-1,-2,0,1],[9.0000E+09,9.0000E+09,9.0000E+09,9.0000E+09,9.0000E+09,9.0000E+09]];
CONST robtarget Calib_56:=[[1693.1,1226.5,768.38],[0.610869,-0.631815,0.409294,-0.245358],[-1,-2,0,1],[9.0000E+09,9.0000E+09,9.0000E+09,9.0000E+09,9.0000E+09,9.0000E+09]];
